;FLAVOR:Marlin
;TIME:10876
;Filament used: 11.8429m
;Layer height: 0.28
;MINX:82.775
;MINY:65.45
;MINZ:0.28
;MAXX:137.225
;MAXY:154.55
;MAXZ:56.56
;Generated with Cura_SteamEngine 4.8.0
M140 S60
M105
M190 S60
M104 S190
M105
M109 S190
M82 ;absolute extrusion mode
M201 X500.00 Y500.00 Z100.00 E5000.00 ;Setup machine max acceleration
M203 X500.00 Y500.00 Z10.00 E50.00 ;Setup machine max feedrate
M204 P500.00 R1000.00 T500.00 ;Setup Print/Retract/Travel acceleration
M205 X8.00 Y8.00 Z0.40 E5.00 ;Setup Jerk
M220 S100 ;Reset Feedrate
M221 S100 ;Reset Flowrate

G28 ;Home

G92 E0 ;Reset Extruder
G1 Z2.0 F3000 ;Move Z Axis up
G1 X10.1 Y20 Z0.28 F5000.0 ;Move to start position
G1 X10.1 Y200.0 Z0.28 F1500.0 E15 ;Draw the first line
G1 X10.4 Y200.0 Z0.28 F5000.0 ;Move to side a little
G1 X10.4 Y20 Z0.28 F1500.0 E30 ;Draw the second line
G92 E0 ;Reset Extruder
G1 Z2.0 F3000 ;Move Z Axis up

G92 E0
G92 E0
G1 F1500 E-6.5
;LAYER_COUNT:202
;LAYER:0
M107
G0 F6000 X84.655 Y68.172 Z0.28
;TYPE:SKIRT
G1 F1500 E0
G1 F1200 X85.198 Y67.599 E0.03676
G1 X85.797 Y67.084 E0.07354
G1 X86.445 Y66.633 E0.1103
G1 X87.136 Y66.249 E0.14711
G1 X87.861 Y65.937 E0.18387
G1 X88.614 Y65.7 E0.22063
G1 X89.388 Y65.541 E0.25742
G1 X90.173 Y65.46 E0.29417
G1 X90.575 Y65.45 E0.31289
G1 X129.425 Y65.45 E2.12191
G1 X130.214 Y65.49 E2.1587
G1 X130.994 Y65.609 E2.19544
G1 X131.759 Y65.807 E2.23223
G1 X132.499 Y66.081 E2.26897
G1 X133.208 Y66.429 E2.30575
G1 X133.879 Y66.847 E2.34256
G1 X134.503 Y67.33 E2.37931
G1 X135.076 Y67.873 E2.41606
G1 X135.591 Y68.472 E2.45285
G1 X136.042 Y69.12 E2.48961
G1 X136.426 Y69.811 E2.52642
G1 X136.738 Y70.536 E2.56317
G1 X136.975 Y71.289 E2.59993
G1 X137.134 Y72.063 E2.63672
G1 X137.215 Y72.848 E2.67347
G1 X137.225 Y73.25 E2.6922
G1 X137.225 Y146.75 E6.11466
G1 X137.185 Y147.539 E6.15145
G1 X137.066 Y148.319 E6.18819
G1 X136.868 Y149.084 E6.22499
G1 X136.594 Y149.824 E6.26173
G1 X136.246 Y150.533 E6.29851
G1 X135.828 Y151.204 E6.33532
G1 X135.345 Y151.828 E6.37206
G1 X134.802 Y152.401 E6.40882
G1 X134.203 Y152.916 E6.4456
G1 X133.555 Y153.367 E6.48237
G1 X132.864 Y153.751 E6.51918
G1 X132.139 Y154.063 E6.55593
G1 X131.386 Y154.3 E6.59269
G1 X130.612 Y154.459 E6.62948
G1 X129.827 Y154.54 E6.66623
G1 X129.425 Y154.55 E6.68495
G1 X90.575 Y154.55 E8.49397
G1 X89.786 Y154.51 E8.53076
G1 X89.006 Y154.391 E8.5675
G1 X88.241 Y154.193 E8.60429
G1 X87.501 Y153.919 E8.64104
G1 X86.792 Y153.571 E8.67781
G1 X86.121 Y153.153 E8.71462
G1 X85.497 Y152.67 E8.75137
G1 X84.924 Y152.127 E8.78813
G1 X84.409 Y151.528 E8.82491
G1 X83.958 Y150.88 E8.86167
G1 X83.574 Y150.189 E8.89848
G1 X83.262 Y149.464 E8.93523
G1 X83.025 Y148.711 E8.97199
G1 X82.866 Y147.937 E9.00879
G1 X82.785 Y147.152 E9.04553
G1 X82.775 Y146.75 E9.06426
G1 X82.775 Y73.25 E12.48673
G1 X82.815 Y72.461 E12.52351
G1 X82.934 Y71.681 E12.56025
G1 X83.132 Y70.916 E12.59705
G1 X83.406 Y70.176 E12.63379
G1 X83.754 Y69.467 E12.67057
G1 X84.172 Y68.796 E12.70738
G1 X84.655 Y68.172 E12.74412
G0 F6000 X85.05 Y68.327
G1 F1200 X85.591 Y67.78 E12.77995
G1 X86.186 Y67.292 E12.81578
G1 X86.828 Y66.869 E12.85158
G1 X87.511 Y66.514 E12.88742
G1 X88.226 Y66.233 E12.92319
G1 X88.968 Y66.027 E12.95905
G1 X89.726 Y65.899 E12.99485
G1 X90.575 Y65.85 E13.03444
G1 X129.425 Y65.85 E14.84346
G1 X130.193 Y65.89 E14.87927
G1 X130.953 Y66.009 E14.91509
G1 X131.696 Y66.207 E14.9509
G1 X132.415 Y66.481 E14.98673
G1 X133.101 Y66.828 E15.02252
G1 X133.748 Y67.244 E15.05834
G1 X134.348 Y67.725 E15.09415
G1 X134.895 Y68.266 E15.12997
G1 X135.383 Y68.861 E15.1658
G1 X135.806 Y69.503 E15.2016
G1 X136.161 Y70.186 E15.23745
G1 X136.442 Y70.901 E15.27322
G1 X136.648 Y71.643 E15.30908
G1 X136.776 Y72.401 E15.34487
G1 X136.825 Y73.25 E15.38447
G1 X136.825 Y146.75 E18.80694
G1 X136.785 Y147.518 E18.84275
G1 X136.666 Y148.278 E18.87857
G1 X136.468 Y149.021 E18.91437
G1 X136.194 Y149.74 E18.9502
G1 X135.847 Y150.426 E18.986
G1 X135.431 Y151.073 E19.02182
G1 X134.95 Y151.673 E19.05762
G1 X134.409 Y152.22 E19.09345
G1 X133.814 Y152.708 E19.12928
G1 X133.172 Y153.131 E19.16508
G1 X132.489 Y153.486 E19.20092
G1 X131.774 Y153.767 E19.23669
G1 X131.032 Y153.973 E19.27255
G1 X130.274 Y154.101 E19.30835
G1 X129.425 Y154.15 E19.34795
G1 X90.575 Y154.15 E21.15696
G1 X89.807 Y154.11 E21.19277
G1 X89.047 Y153.991 E21.22859
G1 X88.304 Y153.793 E21.2644
G1 X87.585 Y153.519 E21.30023
G1 X86.899 Y153.172 E21.33602
G1 X86.252 Y152.756 E21.37184
G1 X85.652 Y152.275 E21.40765
G1 X85.105 Y151.734 E21.44347
G1 X84.617 Y151.139 E21.47931
G1 X84.194 Y150.497 E21.51511
G1 X83.839 Y149.814 E21.55095
G1 X83.558 Y149.099 E21.58672
G1 X83.352 Y148.357 E21.62258
G1 X83.224 Y147.599 E21.65837
G1 X83.175 Y146.75 E21.69797
G1 X83.175 Y73.25 E25.12044
G1 X83.215 Y72.482 E25.15625
G1 X83.334 Y71.722 E25.19207
G1 X83.532 Y70.979 E25.22787
G1 X83.806 Y70.26 E25.2637
G1 X84.153 Y69.574 E25.2995
G1 X84.569 Y68.927 E25.33532
G1 X85.05 Y68.327 E25.37112
G0 F6000 X85.446 Y68.487
G1 F1200 X85.983 Y67.966 E25.40596
G1 X86.573 Y67.507 E25.44077
G1 X87.209 Y67.112 E25.47563
G1 X87.883 Y66.788 E25.51046
G1 X88.588 Y66.538 E25.54529
G1 X89.316 Y66.364 E25.58014
G1 X90.058 Y66.269 E25.61497
G1 X90.575 Y66.25 E25.63906
G1 X129.425 Y66.25 E27.44808
G1 X130.172 Y66.29 E27.48291
G1 X130.91 Y66.409 E27.51772
G1 X131.632 Y66.607 E27.55258
G1 X132.328 Y66.88 E27.5874
G1 X132.991 Y67.227 E27.62224
G1 X133.614 Y67.642 E27.6571
G1 X134.188 Y68.121 E27.69191
G1 X134.709 Y68.658 E27.72675
G1 X135.168 Y69.248 E27.76156
G1 X135.563 Y69.884 E27.79642
G1 X135.887 Y70.558 E27.83124
G1 X136.137 Y71.263 E27.86607
G1 X136.311 Y71.991 E27.90092
G1 X136.406 Y72.733 E27.93576
G1 X136.425 Y73.25 E27.95985
G1 X136.425 Y146.75 E31.38231
G1 X136.385 Y147.497 E31.41715
G1 X136.266 Y148.235 E31.45196
G1 X136.068 Y148.957 E31.48682
G1 X135.795 Y149.653 E31.52163
G1 X135.448 Y150.316 E31.55647
G1 X135.033 Y150.939 E31.59133
G1 X134.554 Y151.513 E31.62614
G1 X134.017 Y152.034 E31.66098
G1 X133.427 Y152.493 E31.69579
G1 X132.791 Y152.888 E31.73065
G1 X132.117 Y153.212 E31.76547
G1 X131.412 Y153.462 E31.8003
G1 X130.684 Y153.636 E31.83516
G1 X129.942 Y153.731 E31.86999
G1 X129.425 Y153.75 E31.89408
G1 X90.575 Y153.75 E33.7031
G1 X89.828 Y153.71 E33.73793
G1 X89.09 Y153.591 E33.77274
G1 X88.368 Y153.393 E33.8076
G1 X87.672 Y153.12 E33.84241
G1 X87.009 Y152.773 E33.87726
G1 X86.386 Y152.358 E33.91211
G1 X85.812 Y151.879 E33.94693
G1 X85.291 Y151.342 E33.98177
G1 X84.832 Y150.752 E34.01657
G1 X84.437 Y150.116 E34.05143
G1 X84.113 Y149.442 E34.08626
G1 X83.863 Y148.737 E34.12109
G1 X83.689 Y148.009 E34.15594
G1 X83.594 Y147.267 E34.19077
G1 X83.575 Y146.75 E34.21486
G1 X83.575 Y73.25 E37.63733
G1 X83.615 Y72.503 E37.67216
G1 X83.734 Y71.765 E37.70697
G1 X83.932 Y71.043 E37.74183
G1 X84.205 Y70.347 E37.77665
G1 X84.552 Y69.684 E37.81149
G1 X84.967 Y69.061 E37.84635
G1 X85.446 Y68.487 E37.88116
G0 F6000 X85.364 Y69.2
G1 F1200 X85.84 Y68.652 E37.91496
G1 X86.374 Y68.159 E37.9488
G1 X86.959 Y67.729 E37.98261
G1 X87.588 Y67.365 E38.01645
G1 X88.253 Y67.072 E38.05028
G1 X88.946 Y66.854 E38.08411
G1 X89.658 Y66.714 E38.1179
G1 X90.575 Y66.65 E38.1607
G1 X129.425 Y66.65 E39.96972
G1 X130.15 Y66.69 E40.00353
G1 X130.867 Y66.809 E40.03738
G1 X131.566 Y67.007 E40.07121
G1 X132.239 Y67.28 E40.10502
G1 X132.878 Y67.625 E40.13884
G1 X133.475 Y68.039 E40.17267
G1 X134.023 Y68.515 E40.20647
G1 X134.516 Y69.049 E40.24031
G1 X134.946 Y69.634 E40.27411
G1 X135.31 Y70.263 E40.30795
G1 X135.603 Y70.928 E40.34179
G1 X135.821 Y71.621 E40.37562
G1 X135.961 Y72.333 E40.40941
G1 X136.025 Y73.25 E40.45221
G1 X136.025 Y146.75 E43.87468
G1 X135.985 Y147.475 E43.90849
G1 X135.866 Y148.192 E43.94233
G1 X135.668 Y148.891 E43.97616
G1 X135.395 Y149.564 E44.00998
G1 X135.05 Y150.203 E44.04379
G1 X134.636 Y150.8 E44.07762
G1 X134.16 Y151.348 E44.11142
G1 X133.626 Y151.841 E44.14526
G1 X133.041 Y152.271 E44.17907
G1 X132.412 Y152.635 E44.21291
G1 X131.747 Y152.928 E44.24675
G1 X131.054 Y153.146 E44.28058
G1 X130.342 Y153.286 E44.31437
G1 X129.425 Y153.35 E44.35717
G1 X90.575 Y153.35 E46.16619
G1 X89.85 Y153.31 E46.2
G1 X89.133 Y153.191 E46.23384
G1 X88.434 Y152.993 E46.26767
G1 X87.761 Y152.72 E46.30149
G1 X87.122 Y152.375 E46.3353
G1 X86.525 Y151.961 E46.36913
G1 X85.977 Y151.485 E46.40293
G1 X85.484 Y150.951 E46.43677
G1 X85.054 Y150.366 E46.47058
G1 X84.69 Y149.737 E46.50442
G1 X84.397 Y149.072 E46.53826
G1 X84.179 Y148.379 E46.57208
G1 X84.039 Y147.667 E46.60587
G1 X83.975 Y146.75 E46.64868
G1 X83.975 Y73.25 E50.07114
G1 X84.015 Y72.525 E50.10495
G1 X84.134 Y71.808 E50.1388
G1 X84.332 Y71.109 E50.17263
G1 X84.605 Y70.436 E50.20644
G1 X84.95 Y69.797 E50.24026
G1 X85.364 Y69.2 E50.27409
G0 F6000 X85.76 Y69.344
G1 F1200 X86.234 Y68.823 E50.30689
G1 X86.764 Y68.359 E50.33969
G1 X87.343 Y67.959 E50.37245
G1 X87.964 Y67.627 E50.40524
G1 X88.618 Y67.367 E50.43802
G1 X89.298 Y67.183 E50.47082
G1 X89.994 Y67.077 E50.5036
G1 X90.575 Y67.05 E50.53068
G1 X129.425 Y67.05 E52.3397
G1 X130.128 Y67.09 E52.37249
G1 X130.822 Y67.209 E52.40528
G1 X131.497 Y67.407 E52.43803
G1 X132.146 Y67.679 E52.4708
G1 X132.76 Y68.024 E52.50359
G1 X133.331 Y68.435 E52.53635
G1 X133.852 Y68.909 E52.56915
G1 X134.316 Y69.439 E52.60195
G1 X134.716 Y70.018 E52.63472
G1 X135.048 Y70.639 E52.66751
G1 X135.308 Y71.293 E52.70028
G1 X135.492 Y71.973 E52.73308
G1 X135.598 Y72.669 E52.76587
G1 X135.625 Y73.25 E52.79295
G1 X135.625 Y146.75 E56.21542
G1 X135.585 Y147.453 E56.2482
G1 X135.466 Y148.147 E56.28099
G1 X135.268 Y148.822 E56.31375
G1 X134.996 Y149.471 E56.34651
G1 X134.651 Y150.085 E56.37931
G1 X134.24 Y150.656 E56.41207
G1 X133.766 Y151.177 E56.44486
G1 X133.236 Y151.641 E56.47767
G1 X132.657 Y152.041 E56.51043
G1 X132.036 Y152.373 E56.54322
G1 X131.382 Y152.633 E56.57599
G1 X130.702 Y152.817 E56.6088
G1 X130.006 Y152.923 E56.64158
G1 X129.425 Y152.95 E56.66866
G1 X90.575 Y152.95 E58.47768
G1 X89.872 Y152.91 E58.51047
G1 X89.178 Y152.791 E58.54326
G1 X88.503 Y152.593 E58.57601
G1 X87.854 Y152.321 E58.60878
G1 X87.24 Y151.976 E58.64157
G1 X86.669 Y151.565 E58.67433
G1 X86.148 Y151.091 E58.70713
G1 X85.684 Y150.561 E58.73993
G1 X85.284 Y149.982 E58.7727
G1 X84.952 Y149.361 E58.80549
G1 X84.692 Y148.707 E58.83826
G1 X84.508 Y148.027 E58.87106
G1 X84.402 Y147.331 E58.90384
G1 X84.375 Y146.75 E58.93093
G1 X84.375 Y73.25 E62.3534
G1 X84.415 Y72.547 E62.38618
G1 X84.534 Y71.853 E62.41897
G1 X84.732 Y71.178 E62.45173
G1 X85.004 Y70.529 E62.48449
G1 X85.349 Y69.915 E62.51729
G1 X85.76 Y69.344 E62.55005
G0 F6000 X86.157 Y69.492
G1 F1200 X86.628 Y69.001 E62.58173
G1 X87.153 Y68.567 E62.61345
G1 X87.725 Y68.198 E62.64514
G1 X88.337 Y67.899 E62.67686
G1 X88.979 Y67.674 E62.70853
G1 X89.644 Y67.525 E62.74027
G1 X90.575 Y67.45 E62.78376
G1 X129.425 Y67.45 E64.59278
G1 X130.105 Y67.49 E64.6245
G1 X130.775 Y67.609 E64.65618
G1 X131.427 Y67.806 E64.6879
G1 X132.051 Y68.078 E64.71959
G1 X132.639 Y68.422 E64.75132
G1 X133.183 Y68.832 E64.78304
G1 X133.674 Y69.303 E64.81472
G1 X134.108 Y69.828 E64.84643
G1 X134.477 Y70.4 E64.87813
G1 X134.776 Y71.012 E64.90985
G1 X135.001 Y71.654 E64.94152
G1 X135.15 Y72.319 E64.97326
G1 X135.225 Y73.25 E65.01675
G1 X135.225 Y146.75 E68.43922
G1 X135.185 Y147.43 E68.47094
G1 X135.066 Y148.1 E68.50262
G1 X134.869 Y148.752 E68.53434
G1 X134.597 Y149.376 E68.56603
G1 X134.253 Y149.964 E68.59775
G1 X133.843 Y150.508 E68.62947
G1 X133.372 Y150.999 E68.66116
G1 X132.847 Y151.433 E68.69287
G1 X132.275 Y151.802 E68.72457
G1 X131.663 Y152.101 E68.75629
G1 X131.021 Y152.326 E68.78796
G1 X130.356 Y152.475 E68.8197
G1 X129.425 Y152.55 E68.86319
G1 X90.575 Y152.55 E70.67221
G1 X89.895 Y152.51 E70.70392
G1 X89.225 Y152.391 E70.73561
G1 X88.573 Y152.194 E70.76733
G1 X87.949 Y151.922 E70.79902
G1 X87.361 Y151.578 E70.83074
G1 X86.817 Y151.168 E70.86246
G1 X86.326 Y150.697 E70.89414
G1 X85.892 Y150.172 E70.92586
G1 X85.523 Y149.6 E70.95756
G1 X85.224 Y148.988 E70.98928
G1 X84.999 Y148.346 E71.02095
G1 X84.85 Y147.681 E71.05269
G1 X84.775 Y146.75 E71.09618
G1 X84.775 Y73.25 E74.51864
G1 X84.815 Y72.57 E74.55036
G1 X84.934 Y71.9 E74.58205
G1 X85.131 Y71.248 E74.61376
G1 X85.403 Y70.624 E74.64546
G1 X85.747 Y70.036 E74.67718
G1 X86.157 Y69.492 E74.7089
G0 F6000 X86.553 Y69.647
G1 F1200 X87.02 Y69.185 E74.73949
G1 X87.54 Y68.784 E74.77007
G1 X88.104 Y68.448 E74.80064
G1 X88.706 Y68.184 E74.83125
G1 X89.335 Y67.994 E74.86184
G1 X89.982 Y67.883 E74.89241
G1 X90.575 Y67.85 E74.92006
G1 X129.425 Y67.85 E76.72908
G1 X130.081 Y67.89 E76.75969
G1 X130.727 Y68.009 E76.79027
G1 X131.354 Y68.206 E76.82087
G1 X131.952 Y68.478 E76.85147
G1 X132.513 Y68.82 E76.88206
G1 X133.028 Y69.228 E76.91265
G1 X133.49 Y69.695 E76.94324
G1 X133.891 Y70.215 E76.97382
G1 X134.227 Y70.779 E77.00439
G1 X134.491 Y71.381 E77.035
G1 X134.681 Y72.01 E77.06559
G1 X134.792 Y72.657 E77.09616
G1 X134.825 Y73.25 E77.12382
G1 X134.825 Y146.75 E80.54628
G1 X134.785 Y147.406 E80.57689
G1 X134.666 Y148.052 E80.60747
G1 X134.469 Y148.679 E80.63808
G1 X134.197 Y149.277 E80.66867
G1 X133.855 Y149.838 E80.69926
G1 X133.447 Y150.353 E80.72985
G1 X132.98 Y150.815 E80.76044
G1 X132.46 Y151.216 E80.79102
G1 X131.896 Y151.552 E80.82159
G1 X131.294 Y151.816 E80.8522
G1 X130.665 Y152.006 E80.88279
G1 X130.018 Y152.117 E80.91336
G1 X129.425 Y152.15 E80.94102
G1 X90.575 Y152.15 E82.75003
G1 X89.919 Y152.11 E82.78064
G1 X89.273 Y151.991 E82.81122
G1 X88.646 Y151.794 E82.84183
G1 X88.048 Y151.522 E82.87242
G1 X87.487 Y151.18 E82.90301
G1 X86.972 Y150.772 E82.93361
G1 X86.51 Y150.305 E82.96419
G1 X86.109 Y149.785 E82.99477
G1 X85.773 Y149.221 E83.02534
G1 X85.509 Y148.619 E83.05595
G1 X85.319 Y147.99 E83.08654
G1 X85.208 Y147.343 E83.11711
G1 X85.175 Y146.75 E83.14477
G1 X85.175 Y73.25 E86.56724
G1 X85.215 Y72.594 E86.59784
G1 X85.334 Y71.948 E86.62842
G1 X85.531 Y71.321 E86.65903
G1 X85.803 Y70.723 E86.68962
G1 X86.145 Y70.162 E86.72021
G1 X86.553 Y69.647 E86.75081
G0 F6000 X86.948 Y69.809
G1 F1200 X87.411 Y69.379 E86.78023
G1 X87.925 Y69.01 E86.80969
G1 X88.481 Y68.71 E86.83911
G1 X89.07 Y68.482 E86.86852
G1 X89.684 Y68.33 E86.89797
G1 X90.575 Y68.25 E86.93963
G1 X129.425 Y68.25 E88.74865
G1 X130.056 Y68.29 E88.77809
G1 X130.677 Y68.409 E88.80753
G1 X131.277 Y68.606 E88.83694
G1 X131.849 Y68.877 E88.86641
G1 X132.381 Y69.217 E88.89581
G1 X132.866 Y69.623 E88.92526
G1 X133.296 Y70.086 E88.95468
G1 X133.665 Y70.6 E88.98415
G1 X133.965 Y71.156 E89.01356
G1 X134.193 Y71.745 E89.04297
G1 X134.345 Y72.359 E89.07243
G1 X134.425 Y73.25 E89.11408
G1 X134.425 Y146.75 E92.53655
G1 X134.385 Y147.381 E92.56599
G1 X134.266 Y148.002 E92.59543
G1 X134.069 Y148.602 E92.62484
G1 X133.798 Y149.174 E92.65431
G1 X133.458 Y149.706 E92.68371
G1 X133.052 Y150.191 E92.71316
G1 X132.589 Y150.621 E92.74259
G1 X132.075 Y150.99 E92.77205
G1 X131.519 Y151.29 E92.80147
G1 X130.93 Y151.518 E92.83088
G1 X130.316 Y151.67 E92.86033
G1 X129.425 Y151.75 E92.90199
G1 X90.575 Y151.75 E94.711
G1 X89.944 Y151.71 E94.74045
G1 X89.323 Y151.591 E94.76989
G1 X88.723 Y151.394 E94.79929
G1 X88.151 Y151.123 E94.82877
G1 X87.619 Y150.783 E94.85817
G1 X87.134 Y150.377 E94.88762
G1 X86.704 Y149.914 E94.91704
G1 X86.335 Y149.4 E94.9465
G1 X86.035 Y148.844 E94.97592
G1 X85.807 Y148.255 E95.00533
G1 X85.655 Y147.641 E95.03478
G1 X85.575 Y146.75 E95.07644
G1 X85.575 Y73.25 E98.49891
G1 X85.615 Y72.619 E98.52835
G1 X85.734 Y71.998 E98.55779
G1 X85.931 Y71.398 E98.5872
G1 X86.202 Y70.826 E98.61667
G1 X86.542 Y70.294 E98.64607
G1 X86.948 Y69.809 E98.67552
G0 F6000 X86.94 Y70.431
G1 F1200 X87.342 Y69.978 E98.70372
G1 X87.8 Y69.581 E98.73195
G1 X88.307 Y69.248 E98.76019
G1 X88.853 Y68.984 E98.78843
G1 X89.429 Y68.795 E98.81666
G1 X90.025 Y68.683 E98.8449
G1 X90.575 Y68.65 E98.87055
G1 X129.425 Y68.65 E100.67957
G1 X130.03 Y68.69 E100.7078
G1 X130.624 Y68.809 E100.73601
G1 X131.198 Y69.005 E100.76426
G1 X131.741 Y69.276 E100.79251
G1 X132.244 Y69.615 E100.82076
G1 X132.697 Y70.017 E100.84896
G1 X133.094 Y70.475 E100.87718
G1 X133.427 Y70.982 E100.90543
G1 X133.691 Y71.528 E100.93367
G1 X133.88 Y72.104 E100.9619
G1 X133.992 Y72.7 E100.99014
G1 X134.025 Y73.25 E101.01579
