;FLAVOR:Marlin
;TIME:24012
;Filament used: 20.2006m
;Layer height: 0.16
;MINX:81.2
;MINY:64.925
;MINZ:0.2
;MAXX:138.8
;MAXY:155.075
;MAXZ:113.92
;Generated with Cura_SteamEngine 4.8.0
M140 S60
M105
M190 S60
M104 S190
M105
M109 S190
M82 ;absolute extrusion mode
M201 X500.00 Y500.00 Z100.00 E5000.00 ;Setup machine max acceleration
M203 X500.00 Y500.00 Z10.00 E50.00 ;Setup machine max feedrate
M204 P500.00 R1000.00 T500.00 ;Setup Print/Retract/Travel acceleration
M205 X8.00 Y8.00 Z0.40 E5.00 ;Setup Jerk
M220 S100 ;Reset Feedrate
M221 S100 ;Reset Flowrate

G28 ;Home

G92 E0 ;Reset Extruder
G1 Z2.0 F3000 ;Move Z Axis up
G1 X10.1 Y20 Z0.28 F5000.0 ;Move to start position
G1 X10.1 Y200.0 Z0.28 F1500.0 E15 ;Draw the first line
G1 X10.4 Y200.0 Z0.28 F5000.0 ;Move to side a little
G1 X10.4 Y20 Z0.28 F1500.0 E30 ;Draw the second line
G92 E0 ;Reset Extruder
G1 Z2.0 F3000 ;Move Z Axis up

G92 E0
G92 E0
G1 F1500 E-6.5
;LAYER_COUNT:631
;LAYER:0
M107
G0 F6000 X87.847 Y68.271 Z0.2
;TYPE:SKIRT
G1 F1500 E0
G1 F1200 X88.33 Y67.647 E0.02625
G1 X88.873 Y67.074 E0.0525
G1 X89.472 Y66.559 E0.07878
G1 X90.12 Y66.108 E0.10503
G1 X90.811 Y65.724 E0.13133
G1 X91.536 Y65.412 E0.15758
G1 X92.289 Y65.175 E0.18383
G1 X93.063 Y65.016 E0.21012
G1 X93.848 Y64.935 E0.23636
G1 X94.25 Y64.925 E0.24974
G1 X125.75 Y64.925 E1.29743
G1 X126.539 Y64.965 E1.32371
G1 X127.319 Y65.084 E1.34995
G1 X128.084 Y65.282 E1.37623
G1 X128.824 Y65.556 E1.40248
G1 X129.533 Y65.904 E1.42875
G1 X130.204 Y66.322 E1.45504
G1 X130.828 Y66.805 E1.48129
G1 X131.401 Y67.348 E1.50754
G1 X131.916 Y67.947 E1.53382
G1 X132.367 Y68.595 E1.56008
G1 X132.751 Y69.286 E1.58637
G1 X133.063 Y70.011 E1.61262
G1 X133.3 Y70.764 E1.63888
G1 X133.459 Y71.538 E1.66516
G1 X133.54 Y72.323 E1.69141
G1 X133.55 Y72.725 E1.70478
G1 X133.55 Y92.662 E2.36789
G1 X134.074 Y92.856 E2.38647
G1 X134.783 Y93.204 E2.41274
G1 X135.454 Y93.622 E2.43904
G1 X136.078 Y94.105 E2.46528
G1 X136.651 Y94.648 E2.49154
G1 X137.166 Y95.247 E2.51781
G1 X137.617 Y95.895 E2.54407
G1 X138.001 Y96.586 E2.57036
G1 X138.313 Y97.311 E2.59661
G1 X138.55 Y98.064 E2.62287
G1 X138.709 Y98.838 E2.64915
G1 X138.79 Y99.623 E2.6754
G1 X138.8 Y100.025 E2.68877
G1 X138.8 Y147.275 E4.26031
G1 X138.76 Y148.064 E4.28659
G1 X138.641 Y148.844 E4.31283
G1 X138.443 Y149.609 E4.33912
G1 X138.169 Y150.349 E4.36536
G1 X137.821 Y151.058 E4.39163
G1 X137.403 Y151.729 E4.41792
G1 X136.92 Y152.353 E4.44417
G1 X136.377 Y152.926 E4.47043
G1 X135.778 Y153.441 E4.4967
G1 X135.13 Y153.892 E4.52296
G1 X134.439 Y154.276 E4.54925
G1 X133.714 Y154.588 E4.5755
G1 X132.961 Y154.825 E4.60176
G1 X132.187 Y154.984 E4.62804
G1 X131.402 Y155.065 E4.65429
G1 X131 Y155.075 E4.66766
G1 X89 Y155.075 E6.06459
G1 X88.211 Y155.035 E6.09086
G1 X87.431 Y154.916 E6.11711
G1 X86.666 Y154.718 E6.14339
G1 X85.926 Y154.444 E6.16964
G1 X85.217 Y154.096 E6.1959
G1 X84.546 Y153.678 E6.2222
G1 X83.922 Y153.195 E6.24844
G1 X83.349 Y152.652 E6.2747
G1 X82.834 Y152.053 E6.30097
G1 X82.383 Y151.405 E6.32723
G1 X81.999 Y150.714 E6.35353
G1 X81.687 Y149.989 E6.37978
G1 X81.45 Y149.236 E6.40603
G1 X81.291 Y148.462 E6.43231
G1 X81.21 Y147.677 E6.45856
G1 X81.2 Y147.275 E6.47194
G1 X81.2 Y100.025 E8.04348
G1 X81.24 Y99.236 E8.06975
G1 X81.359 Y98.456 E8.096
G1 X81.557 Y97.691 E8.12228
G1 X81.831 Y96.951 E8.14852
G1 X82.179 Y96.242 E8.17479
G1 X82.597 Y95.571 E8.20109
G1 X83.08 Y94.947 E8.22733
G1 X83.623 Y94.374 E8.25359
G1 X84.222 Y93.859 E8.27986
G1 X84.87 Y93.408 E8.30612
G1 X85.561 Y93.024 E8.33241
G1 X86.286 Y92.712 E8.35867
G1 X86.45 Y92.66 E8.36439
G1 X86.45 Y72.725 E9.02743
G1 X86.49 Y71.936 E9.05371
G1 X86.609 Y71.156 E9.07995
G1 X86.807 Y70.391 E9.10623
G1 X87.081 Y69.651 E9.13248
G1 X87.429 Y68.942 E9.15875
G1 X87.847 Y68.271 E9.18504
G0 F6000 X88.244 Y68.402
G1 F1200 X88.725 Y67.802 E9.21062
G1 X89.266 Y67.255 E9.2362
G1 X89.861 Y66.767 E9.2618
G1 X90.503 Y66.344 E9.28737
G1 X91.186 Y65.989 E9.31297
G1 X91.901 Y65.708 E9.33852
G1 X92.643 Y65.502 E9.36414
G1 X93.401 Y65.374 E9.3897
G1 X94.25 Y65.325 E9.41799
G1 X125.75 Y65.325 E10.46568
G1 X126.518 Y65.365 E10.49126
G1 X127.278 Y65.484 E10.51685
G1 X128.021 Y65.682 E10.54242
G1 X128.74 Y65.956 E10.56801
G1 X129.426 Y66.303 E10.59358
G1 X130.073 Y66.719 E10.61917
G1 X130.673 Y67.2 E10.64474
G1 X131.22 Y67.741 E10.67033
G1 X131.708 Y68.336 E10.69593
G1 X132.131 Y68.978 E10.7215
G1 X132.486 Y69.661 E10.7471
G1 X132.767 Y70.376 E10.77265
G1 X132.973 Y71.118 E10.79826
G1 X133.101 Y71.876 E10.82383
G1 X133.15 Y72.725 E10.85212
G1 X133.15 Y92.95 E11.5248
G1 X133.271 Y92.982 E11.52897
G1 X133.99 Y93.256 E11.55456
G1 X134.676 Y93.603 E11.58013
G1 X135.323 Y94.019 E11.60571
G1 X135.923 Y94.5 E11.63129
G1 X136.47 Y95.041 E11.65688
G1 X136.958 Y95.636 E11.68247
G1 X137.381 Y96.278 E11.70804
G1 X137.736 Y96.961 E11.73364
G1 X138.017 Y97.676 E11.7592
G1 X138.223 Y98.418 E11.78481
G1 X138.351 Y99.176 E11.81038
G1 X138.4 Y100.025 E11.83866
G1 X138.4 Y147.275 E13.4102
G1 X138.36 Y148.043 E13.43578
G1 X138.241 Y148.803 E13.46137
G1 X138.043 Y149.546 E13.48694
G1 X137.769 Y150.265 E13.51253
G1 X137.422 Y150.951 E13.5381
G1 X137.006 Y151.598 E13.56369
G1 X136.525 Y152.198 E13.58926
G1 X135.984 Y152.745 E13.61485
G1 X135.389 Y153.233 E13.64045
G1 X134.747 Y153.656 E13.66602
G1 X134.064 Y154.011 E13.69162
G1 X133.349 Y154.292 E13.71717
G1 X132.607 Y154.498 E13.74278
G1 X131.849 Y154.626 E13.76835
G1 X131 Y154.675 E13.79664
G1 X89 Y154.675 E15.19356
G1 X88.232 Y154.635 E15.21914
G1 X87.472 Y154.516 E15.24473
G1 X86.729 Y154.318 E15.2703
G1 X86.01 Y154.044 E15.29589
G1 X85.324 Y153.697 E15.32146
G1 X84.677 Y153.281 E15.34705
G1 X84.077 Y152.8 E15.37262
G1 X83.53 Y152.259 E15.39821
G1 X83.042 Y151.664 E15.42381
G1 X82.619 Y151.022 E15.44938
G1 X82.264 Y150.339 E15.47498
G1 X81.983 Y149.624 E15.50053
G1 X81.777 Y148.882 E15.52614
G1 X81.649 Y148.124 E15.55171
G1 X81.6 Y147.275 E15.58
G1 X81.6 Y100.025 E17.15154
G1 X81.64 Y99.257 E17.17712
G1 X81.759 Y98.497 E17.2027
G1 X81.957 Y97.754 E17.22828
G1 X82.231 Y97.035 E17.25387
G1 X82.578 Y96.349 E17.27944
G1 X82.994 Y95.702 E17.30502
G1 X83.475 Y95.102 E17.3306
G1 X84.016 Y94.555 E17.35619
G1 X84.611 Y94.067 E17.38178
G1 X85.253 Y93.644 E17.40735
G1 X85.936 Y93.289 E17.43295
G1 X86.651 Y93.008 E17.45851
G1 X86.85 Y92.953 E17.46537
G1 X86.85 Y72.725 E18.13816
G1 X86.89 Y71.957 E18.16374
G1 X87.009 Y71.197 E18.18932
G1 X87.207 Y70.454 E18.2149
G1 X87.481 Y69.735 E18.24049
G1 X87.828 Y69.049 E18.26606
G1 X88.244 Y68.402 E18.29164
G0 F6000 X88.642 Y68.536
G1 F1200 X89.121 Y67.962 E18.31651
G1 X89.658 Y67.441 E18.34139
G1 X90.248 Y66.982 E18.36626
G1 X90.884 Y66.587 E18.39116
G1 X91.558 Y66.263 E18.41603
G1 X92.263 Y66.013 E18.44091
G1 X92.991 Y65.839 E18.4658
G1 X93.733 Y65.744 E18.49068
G1 X94.25 Y65.725 E18.50789
G1 X125.75 Y65.725 E19.55559
G1 X126.497 Y65.765 E19.58047
G1 X127.235 Y65.884 E19.60533
G1 X127.957 Y66.082 E19.63023
G1 X128.653 Y66.355 E19.6551
G1 X129.316 Y66.702 E19.67999
G1 X129.939 Y67.117 E19.70488
G1 X130.513 Y67.596 E19.72975
G1 X131.034 Y68.133 E19.75463
G1 X131.493 Y68.723 E19.7795
G1 X131.888 Y69.359 E19.8044
G1 X132.212 Y70.033 E19.82927
G1 X132.462 Y70.738 E19.85415
G1 X132.636 Y71.466 E19.87904
G1 X132.731 Y72.208 E19.90393
G1 X132.75 Y72.725 E19.92113
G1 X132.75 Y93.257 E20.60403
G1 X133.207 Y93.382 E20.61979
G1 X133.903 Y93.655 E20.64465
G1 X134.566 Y94.002 E20.66954
G1 X135.189 Y94.417 E20.69444
G1 X135.763 Y94.896 E20.71931
G1 X136.284 Y95.433 E20.74419
G1 X136.743 Y96.023 E20.76905
G1 X137.138 Y96.659 E20.79395
G1 X137.462 Y97.333 E20.81883
G1 X137.712 Y98.038 E20.84371
G1 X137.886 Y98.766 E20.8686
G1 X137.981 Y99.508 E20.89348
G1 X138 Y100.025 E20.91069
G1 X138 Y147.275 E22.48223
G1 X137.96 Y148.022 E22.50711
G1 X137.841 Y148.76 E22.53198
G1 X137.643 Y149.482 E22.55688
G1 X137.37 Y150.178 E22.58174
G1 X137.023 Y150.841 E22.60663
G1 X136.608 Y151.464 E22.63153
G1 X136.129 Y152.038 E22.65639
G1 X135.592 Y152.559 E22.68128
G1 X135.002 Y153.018 E22.70614
G1 X134.366 Y153.413 E22.73104
G1 X133.692 Y153.737 E22.75592
G1 X132.987 Y153.987 E22.7808
G1 X132.259 Y154.161 E22.80569
G1 X131.517 Y154.256 E22.83057
G1 X131 Y154.275 E22.84778
G1 X89 Y154.275 E24.2447
G1 X88.253 Y154.235 E24.26958
G1 X87.515 Y154.116 E24.29445
G1 X86.793 Y153.918 E24.31935
G1 X86.097 Y153.645 E24.34421
G1 X85.434 Y153.298 E24.3691
G1 X84.811 Y152.883 E24.394
G1 X84.237 Y152.404 E24.41887
G1 X83.716 Y151.867 E24.44375
G1 X83.257 Y151.277 E24.46861
G1 X82.862 Y150.641 E24.49352
G1 X82.538 Y149.967 E24.51839
G1 X82.288 Y149.262 E24.54327
G1 X82.114 Y148.534 E24.56816
G1 X82.019 Y147.792 E24.59304
G1 X82 Y147.275 E24.61025
G1 X82 Y100.025 E26.18179
G1 X82.04 Y99.278 E26.20667
G1 X82.159 Y98.54 E26.23154
G1 X82.357 Y97.818 E26.25644
G1 X82.63 Y97.122 E26.2813
G1 X82.977 Y96.459 E26.30619
G1 X83.392 Y95.836 E26.33109
G1 X83.871 Y95.262 E26.35595
G1 X84.408 Y94.741 E26.38084
G1 X84.998 Y94.282 E26.4057
G1 X85.634 Y93.887 E26.4306
G1 X86.308 Y93.563 E26.45548
G1 X87.013 Y93.313 E26.48036
G1 X87.25 Y93.256 E26.48846
G1 X87.25 Y72.725 E27.17133
G1 X87.29 Y71.978 E27.19621
G1 X87.409 Y71.24 E27.22107
G1 X87.607 Y70.518 E27.24597
G1 X87.88 Y69.822 E27.27084
G1 X88.227 Y69.159 E27.29573
G1 X88.642 Y68.536 E27.32062
G0 F6000 X89.039 Y68.675
G1 F1200 X89.515 Y68.127 E27.34477
G1 X90.049 Y67.634 E27.36894
G1 X90.634 Y67.204 E27.39309
G1 X91.263 Y66.84 E27.41726
G1 X91.928 Y66.547 E27.44143
G1 X92.621 Y66.329 E27.46559
G1 X93.333 Y66.189 E27.48973
G1 X94.25 Y66.125 E27.5203
G1 X125.75 Y66.125 E28.56799
G1 X126.475 Y66.165 E28.59214
G1 X127.192 Y66.284 E28.61632
G1 X127.891 Y66.482 E28.64048
G1 X128.564 Y66.755 E28.66464
G1 X129.203 Y67.1 E28.68879
G1 X129.8 Y67.514 E28.71295
G1 X130.348 Y67.99 E28.7371
G1 X130.841 Y68.524 E28.76127
G1 X131.271 Y69.109 E28.78542
G1 X131.635 Y69.738 E28.80959
G1 X131.928 Y70.403 E28.83376
G1 X132.146 Y71.096 E28.85792
G1 X132.286 Y71.808 E28.88205
G1 X132.35 Y72.725 E28.91263
G1 X132.35 Y93.569 E29.6059
G1 X132.442 Y93.584 E29.609
G1 X133.141 Y93.782 E29.63317
G1 X133.814 Y94.055 E29.65732
G1 X134.453 Y94.4 E29.68148
G1 X135.05 Y94.814 E29.70564
G1 X135.598 Y95.29 E29.72978
G1 X136.091 Y95.824 E29.75395
G1 X136.521 Y96.409 E29.7781
G1 X136.885 Y97.038 E29.80227
G1 X137.178 Y97.703 E29.82644
G1 X137.396 Y98.396 E29.85061
G1 X137.536 Y99.108 E29.87474
G1 X137.6 Y100.025 E29.90531
G1 X137.6 Y147.275 E31.47686
G1 X137.56 Y148 E31.50101
G1 X137.441 Y148.717 E31.52518
G1 X137.243 Y149.416 E31.54934
G1 X136.97 Y150.089 E31.5735
G1 X136.625 Y150.728 E31.59765
G1 X136.211 Y151.325 E31.62181
G1 X135.735 Y151.873 E31.64596
G1 X135.201 Y152.366 E31.67013
G1 X134.616 Y152.796 E31.69428
G1 X133.987 Y153.16 E31.71845
G1 X133.322 Y153.453 E31.74262
G1 X132.629 Y153.671 E31.76678
G1 X131.917 Y153.811 E31.79092
G1 X131 Y153.875 E31.82149
G1 X89 Y153.875 E33.21842
G1 X88.275 Y153.835 E33.24257
G1 X87.558 Y153.716 E33.26674
G1 X86.859 Y153.518 E33.2909
G1 X86.186 Y153.245 E33.31506
G1 X85.547 Y152.9 E33.33921
G1 X84.95 Y152.486 E33.36338
G1 X84.402 Y152.01 E33.38752
G1 X83.909 Y151.476 E33.41169
G1 X83.479 Y150.891 E33.43584
G1 X83.115 Y150.262 E33.46001
G1 X82.822 Y149.597 E33.48418
G1 X82.604 Y148.904 E33.50834
G1 X82.464 Y148.192 E33.53248
G1 X82.4 Y147.275 E33.56305
G1 X82.4 Y100.025 E35.13459
G1 X82.44 Y99.3 E35.15874
G1 X82.559 Y98.583 E35.18292
G1 X82.757 Y97.884 E35.20708
G1 X83.03 Y97.211 E35.23124
G1 X83.375 Y96.572 E35.25539
G1 X83.789 Y95.975 E35.27955
G1 X84.265 Y95.427 E35.30369
G1 X84.799 Y94.934 E35.32787
G1 X85.384 Y94.504 E35.35201
G1 X86.013 Y94.14 E35.37619
G1 X86.678 Y93.847 E35.40036
G1 X87.371 Y93.629 E35.42452
G1 X87.65 Y93.574 E35.43398
G1 X87.65 Y72.725 E36.12742
G1 X87.69 Y72 E36.15157
G1 X87.809 Y71.283 E36.17574
G1 X88.007 Y70.584 E36.1999
G1 X88.28 Y69.911 E36.22406
G1 X88.625 Y69.272 E36.24821
G1 X89.039 Y68.675 E36.27238
G0 F6000 X89.024 Y69.39
G1 F1200 X89.435 Y68.819 E36.29578
G1 X89.909 Y68.298 E36.3192
G1 X90.439 Y67.834 E36.34263
G1 X91.018 Y67.434 E36.36604
G1 X91.639 Y67.102 E36.38946
G1 X92.293 Y66.842 E36.41287
G1 X92.973 Y66.658 E36.4363
G1 X93.669 Y66.552 E36.45971
G1 X94.25 Y66.525 E36.47906
G1 X125.75 Y66.525 E37.52675
G1 X126.453 Y66.565 E37.55017
G1 X127.147 Y66.684 E37.57359
G1 X127.822 Y66.882 E37.59699
G1 X128.471 Y67.154 E37.62039
G1 X129.085 Y67.499 E37.64382
G1 X129.656 Y67.91 E37.66722
G1 X130.177 Y68.384 E37.69065
G1 X130.641 Y68.914 E37.71407
G1 X131.041 Y69.493 E37.73748
G1 X131.373 Y70.114 E37.7609
G1 X131.633 Y70.768 E37.78431
G1 X131.817 Y71.448 E37.80774
G1 X131.923 Y72.144 E37.83116
G1 X131.95 Y72.725 E37.8505
G1 X131.95 Y93.907 E38.55502
G1 X132.397 Y93.984 E38.5701
G1 X133.072 Y94.182 E38.5935
G1 X133.721 Y94.454 E38.6169
G1 X134.335 Y94.799 E38.64033
G1 X134.906 Y95.21 E38.66373
G1 X135.427 Y95.684 E38.68716
G1 X135.891 Y96.214 E38.71058
G1 X136.291 Y96.793 E38.73399
G1 X136.623 Y97.414 E38.75741
G1 X136.883 Y98.068 E38.78082
G1 X137.067 Y98.748 E38.80425
G1 X137.173 Y99.444 E38.82767
G1 X137.2 Y100.025 E38.84701
G1 X137.2 Y147.275 E40.41855
G1 X137.16 Y147.978 E40.44197
G1 X137.041 Y148.672 E40.46539
G1 X136.843 Y149.347 E40.48879
G1 X136.571 Y149.996 E40.51219
G1 X136.226 Y150.61 E40.53562
G1 X135.815 Y151.181 E40.55902
G1 X135.341 Y151.702 E40.58244
G1 X134.811 Y152.166 E40.60587
G1 X134.232 Y152.566 E40.62928
G1 X133.611 Y152.898 E40.6527
G1 X132.957 Y153.158 E40.67611
G1 X132.277 Y153.342 E40.69954
G1 X131.581 Y153.448 E40.72295
G1 X131 Y153.475 E40.7423
G1 X89 Y153.475 E42.13923
G1 X88.297 Y153.435 E42.16265
G1 X87.603 Y153.316 E42.18606
G1 X86.928 Y153.118 E42.20946
G1 X86.279 Y152.846 E42.23287
G1 X85.665 Y152.501 E42.25629
G1 X85.094 Y152.09 E42.27969
G1 X84.573 Y151.616 E42.30312
G1 X84.109 Y151.086 E42.32655
G1 X83.709 Y150.507 E42.34995
G1 X83.377 Y149.886 E42.37337
G1 X83.117 Y149.232 E42.39678
G1 X82.933 Y148.552 E42.42021
G1 X82.827 Y147.856 E42.44363
G1 X82.8 Y147.275 E42.46297
G1 X82.8 Y100.025 E44.03451
G1 X82.84 Y99.322 E44.05793
G1 X82.959 Y98.628 E44.08135
G1 X83.157 Y97.953 E44.10475
G1 X83.429 Y97.304 E44.12815
G1 X83.774 Y96.69 E44.15158
G1 X84.185 Y96.119 E44.17498
G1 X84.659 Y95.598 E44.19841
G1 X85.189 Y95.134 E44.22184
G1 X85.768 Y94.734 E44.24524
G1 X86.389 Y94.402 E44.26866
G1 X87.043 Y94.142 E44.29207
G1 X87.723 Y93.958 E44.3155
G1 X88.05 Y93.908 E44.3265
G1 X88.05 Y72.725 E45.03105
G1 X88.09 Y72.022 E45.05447
G1 X88.209 Y71.328 E45.07789
G1 X88.407 Y70.653 E45.10129
G1 X88.679 Y70.004 E45.12469
G1 X89.024 Y69.39 E45.14812
G0 F6000 X89.422 Y69.511
G1 F1200 X89.832 Y68.967 E45.17077
G1 X90.303 Y68.476 E45.1934
G1 X90.828 Y68.042 E45.21606
G1 X91.4 Y67.673 E45.2387
G1 X92.012 Y67.374 E45.26135
G1 X92.654 Y67.149 E45.28398
G1 X93.319 Y67 E45.30665
G1 X94.25 Y66.925 E45.33771
G1 X125.75 Y66.925 E46.38541
G1 X126.43 Y66.965 E46.40806
G1 X127.1 Y67.084 E46.4307
G1 X127.752 Y67.281 E46.45335
G1 X128.376 Y67.553 E46.47599
G1 X128.964 Y67.897 E46.49865
G1 X129.508 Y68.307 E46.52131
G1 X129.999 Y68.778 E46.54393
G1 X130.433 Y69.303 E46.56659
G1 X130.802 Y69.875 E46.58923
G1 X131.101 Y70.487 E46.61188
G1 X131.326 Y71.129 E46.63451
G1 X131.475 Y71.794 E46.65718
G1 X131.55 Y72.725 E46.68824
G1 X131.55 Y94.257 E47.4044
G1 X131.68 Y94.265 E47.40873
G1 X132.35 Y94.384 E47.43137
G1 X133.002 Y94.581 E47.45402
G1 X133.626 Y94.853 E47.47666
G1 X134.214 Y95.197 E47.49932
G1 X134.758 Y95.607 E47.52197
G1 X135.249 Y96.078 E47.5446
G1 X135.683 Y96.603 E47.56726
G1 X136.052 Y97.175 E47.5899
G1 X136.351 Y97.787 E47.61255
G1 X136.576 Y98.429 E47.63518
G1 X136.725 Y99.094 E47.65785
G1 X136.8 Y100.025 E47.68891
G1 X136.8 Y147.275 E49.26045
G1 X136.76 Y147.955 E49.28311
G1 X136.641 Y148.625 E49.30574
G1 X136.444 Y149.277 E49.3284
G1 X136.172 Y149.901 E49.35104
G1 X135.828 Y150.489 E49.3737
G1 X135.418 Y151.033 E49.39635
G1 X134.947 Y151.524 E49.41898
G1 X134.422 Y151.958 E49.44164
G1 X133.85 Y152.327 E49.46428
G1 X133.238 Y152.626 E49.48693
G1 X132.596 Y152.851 E49.50956
G1 X131.931 Y153 E49.53222
G1 X131 Y153.075 E49.56329
G1 X89 Y153.075 E50.96022
G1 X88.32 Y153.035 E50.98287
G1 X87.65 Y152.916 E51.0055
