;FLAVOR:Marlin
;TIME:3442
;Filament used: 1.93466m
;Layer height: 0.16
;MINX:92.55
;MINY:93.622
;MINZ:0.2
;MAXX:127.45
;MAXY:128.11
;MAXZ:20.96
;Generated with Cura_SteamEngine 4.8.0
M140 S60
M105
M190 S60
M104 S190
M105
M109 S190
M82 ;absolute extrusion mode
M201 X500.00 Y500.00 Z100.00 E5000.00 ;Setup machine max acceleration
M203 X500.00 Y500.00 Z10.00 E50.00 ;Setup machine max feedrate
M204 P500.00 R1000.00 T500.00 ;Setup Print/Retract/Travel acceleration
M205 X8.00 Y8.00 Z0.40 E5.00 ;Setup Jerk
M220 S100 ;Reset Feedrate
M221 S100 ;Reset Flowrate

G28 ;Home

G92 E0 ;Reset Extruder
G1 Z2.0 F3000 ;Move Z Axis up
G1 X10.1 Y20 Z0.28 F5000.0 ;Move to start position
G1 X10.1 Y200.0 Z0.28 F1500.0 E15 ;Draw the first line
G1 X10.4 Y200.0 Z0.28 F5000.0 ;Move to side a little
G1 X10.4 Y20 Z0.28 F1500.0 E30 ;Draw the second line
G92 E0 ;Reset Extruder
G1 Z2.0 F3000 ;Move Z Axis up

G92 E0
G92 E0
G1 F1500 E-6.5
;LAYER_COUNT:121
;LAYER:0
M107
G0 F6000 X98.306 Y97.915 Z0.2
;TYPE:SKIRT
G1 F1500 E0
G1 F1200 X98.957 Y97.386 E0.0279
G1 X100.592 Y96.198 E0.09512
G1 X101.254 Y95.767 E0.12139
G1 X102.002 Y95.383 E0.14936
G1 X103.84 Y94.564 E0.21628
G1 X104.577 Y94.28 E0.24255
G1 X105.389 Y94.06 E0.27054
G1 X106.642 Y93.793 E0.31315
G1 X107.422 Y93.668 E0.33942
G1 X108.21 Y93.622 E0.36567
G1 X108.999 Y93.656 E0.39194
G1 X109.781 Y93.77 E0.41822
G1 X110.002 Y93.825 E0.4258
G1 X110.545 Y93.714 E0.44423
G1 X111.33 Y93.633 E0.47048
G1 X112.12 Y93.633 E0.49676
G1 X112.906 Y93.712 E0.52303
G1 X113.359 Y93.795 E0.53835
G1 X114.611 Y94.062 E0.58093
G1 X115.374 Y94.265 E0.60719
G1 X116.154 Y94.563 E0.63496
G1 X117.993 Y95.381 E0.7019
G1 X118.697 Y95.738 E0.72816
G1 X119.404 Y96.195 E0.75616
G1 X121.04 Y97.382 E0.82338
G1 X121.654 Y97.877 E0.84961
G1 X122.284 Y98.507 E0.87925
G1 X122.527 Y98.78 E0.8914
G1 X123.6 Y99.969 E0.94467
G1 X124.098 Y100.582 E0.97094
G1 X124.568 Y101.302 E0.99954
G1 X125.573 Y103.047 E1.06652
G1 X125.932 Y103.751 E1.0928
G1 X126.229 Y104.519 E1.12019
G1 X126.855 Y106.436 E1.18726
G1 X127.061 Y107.198 E1.21351
G1 X127.198 Y108.045 E1.24205
G1 X127.408 Y110.052 E1.30917
G1 X127.45 Y110.841 E1.33545
G1 X127.408 Y111.675 E1.36322
G1 X127.198 Y113.685 E1.43044
G1 X127.076 Y114.465 E1.4567
G1 X126.855 Y115.294 E1.48523
G1 X126.229 Y117.212 E1.55234
G1 X125.946 Y117.949 E1.5786
G1 X125.574 Y118.683 E1.60596
G1 X124.569 Y120.429 E1.67297
G1 X124.141 Y121.093 E1.69924
G1 X123.601 Y121.762 E1.72784
G1 X122.25 Y123.26 E1.79493
G1 X121.692 Y123.819 E1.8212
G1 X121.042 Y124.347 E1.84906
G1 X119.408 Y125.534 E1.91623
G1 X118.747 Y125.965 E1.94248
G1 X118.004 Y126.345 E1.97023
G1 X116.165 Y127.166 E2.03722
G1 X115.428 Y127.451 E2.0635
G1 X114.605 Y127.674 E2.09186
G1 X113.352 Y127.94 E2.13446
G1 X112.572 Y128.065 E2.16074
G1 X111.784 Y128.11 E2.18699
G1 X110.995 Y128.075 E2.21326
G1 X110.213 Y127.961 E2.23954
G1 X109.997 Y127.907 E2.24694
G1 X109.455 Y128.018 E2.26535
G1 X108.67 Y128.099 E2.29159
G1 X107.88 Y128.099 E2.31787
G1 X107.094 Y128.02 E2.34414
G1 X106.647 Y127.939 E2.35925
G1 X105.395 Y127.673 E2.40182
G1 X104.632 Y127.47 E2.42808
G1 X103.841 Y127.168 E2.45625
G1 X102.001 Y126.348 E2.52325
G1 X101.297 Y125.99 E2.54952
G1 X100.596 Y125.537 E2.57727
G1 X98.961 Y124.351 E2.64446
G1 X98.346 Y123.855 E2.67073
G1 X97.725 Y123.234 E2.69994
G1 X96.4 Y121.764 E2.76577
G1 X95.902 Y121.151 E2.79204
G1 X95.431 Y120.429 E2.82071
G1 X94.426 Y118.683 E2.88771
G1 X94.067 Y117.98 E2.91397
G1 X93.771 Y117.212 E2.94134
G1 X93.145 Y115.294 E3.00845
G1 X92.938 Y114.532 E3.03471
G1 X92.802 Y113.686 E3.06321
G1 X92.592 Y111.68 E3.13029
G1 X92.55 Y110.892 E3.15654
G1 X92.592 Y110.058 E3.18431
G1 X92.802 Y108.047 E3.25156
G1 X92.924 Y107.267 E3.27782
G1 X93.145 Y106.436 E3.30642
G1 X93.771 Y104.519 E3.37349
G1 X94.054 Y103.781 E3.39978
G1 X94.427 Y103.047 E3.42717
G1 X95.432 Y101.302 E3.49414
G1 X95.86 Y100.639 E3.52039
G1 X96.397 Y99.973 E3.54885
G1 X97.748 Y98.474 E3.61596
G1 X98.306 Y97.915 E3.64223
G0 F6000 X98.589 Y98.198
G1 F1200 X99.192 Y97.709 E3.66806
G1 X100.827 Y96.521 E3.73528
G1 X101.472 Y96.102 E3.76086
G1 X102.165 Y95.749 E3.78673
G1 X104.003 Y94.93 E3.85365
G1 X104.721 Y94.654 E3.87924
G1 X105.473 Y94.451 E3.90514
G1 X106.726 Y94.184 E3.94775
G1 X107.485 Y94.064 E3.97331
G1 X108.253 Y94.022 E3.99889
G1 X109.022 Y94.06 E4.0245
G1 X109.782 Y94.178 E4.05008
G1 X109.998 Y94.235 E4.05751
G1 X110.125 Y94.2 E4.06189
G1 X110.883 Y94.072 E4.08746
G1 X111.651 Y94.023 E4.11306
G1 X112.419 Y94.055 E4.13862
G1 X113.275 Y94.186 E4.16743
G1 X114.527 Y94.453 E4.21
G1 X115.27 Y94.652 E4.23559
G1 X115.991 Y94.929 E4.26128
G1 X117.83 Y95.747 E4.32822
G1 X118.516 Y96.095 E4.3538
G1 X119.169 Y96.518 E4.37968
G1 X120.805 Y97.705 E4.44691
G1 X121.403 Y98.189 E4.4725
G1 X121.985 Y98.773 E4.49992
G1 X122.23 Y99.048 E4.51217
G1 X123.303 Y100.237 E4.56544
G1 X123.788 Y100.834 E4.59102
G1 X124.222 Y101.502 E4.61752
G1 X125.227 Y103.247 E4.68449
G1 X125.575 Y103.932 E4.71005
G1 X125.848 Y104.643 E4.73538
G1 X126.474 Y106.56 E4.80245
G1 X126.675 Y107.302 E4.82802
G1 X126.8 Y108.087 E4.85446
G1 X127.01 Y110.094 E4.92158
G1 X127.05 Y110.862 E4.94715
G1 X127.01 Y111.633 E4.97283
G1 X126.8 Y113.643 E5.04005
G1 X126.68 Y114.403 E5.06564
G1 X126.475 Y115.17 E5.09205
G1 X125.849 Y117.088 E5.15915
G1 X125.572 Y117.806 E5.18475
G1 X125.227 Y118.484 E5.21005
G1 X124.222 Y120.23 E5.27705
G1 X123.805 Y120.875 E5.3026
G1 X123.304 Y121.494 E5.32909
G1 X121.953 Y122.992 E5.39618
G1 X121.409 Y123.536 E5.42177
G1 X120.807 Y124.023 E5.44752
G1 X119.173 Y125.21 E5.5147
G1 X118.528 Y125.629 E5.54028
G1 X117.841 Y125.98 E5.56594
G1 X116.002 Y126.801 E5.63292
G1 X115.284 Y127.078 E5.65852
G1 X114.522 Y127.283 E5.68476
G1 X113.269 Y127.549 E5.72737
G1 X112.509 Y127.669 E5.75296
G1 X111.741 Y127.71 E5.77854
G1 X110.973 Y127.671 E5.80411
G1 X110.213 Y127.552 E5.8297
G1 X110.003 Y127.497 E5.83692
G1 X109.875 Y127.532 E5.84133
G1 X109.117 Y127.66 E5.8669
G1 X108.349 Y127.709 E5.8925
G1 X107.581 Y127.677 E5.91806
G1 X106.73 Y127.547 E5.9467
G1 X105.478 Y127.281 E5.98927
G1 X104.735 Y127.083 E6.01484
G1 X104.004 Y126.802 E6.04089
G1 X102.164 Y125.982 E6.10789
G1 X101.478 Y125.633 E6.13349
G1 X100.831 Y125.213 E6.15914
G1 X99.196 Y124.027 E6.22633
G1 X98.598 Y123.544 E6.25189
G1 X98.023 Y122.968 E6.27896
G1 X97.746 Y122.658 E6.29279
G1 X96.697 Y121.496 E6.34486
G1 X96.212 Y120.899 E6.37044
G1 X95.778 Y120.23 E6.39696
G1 X94.773 Y118.484 E6.46397
G1 X94.424 Y117.798 E6.48957
G1 X94.151 Y117.088 E6.51487
G1 X93.525 Y115.17 E6.58197
G1 X93.325 Y114.427 E6.60756
G1 X93.2 Y113.644 E6.63394
G1 X92.99 Y111.638 E6.70102
G1 X92.95 Y110.87 E6.7266
G1 X92.99 Y110.099 E6.75228
G1 X93.2 Y108.088 E6.81953
G1 X93.32 Y107.329 E6.84509
G1 X93.526 Y106.56 E6.87156
G1 X94.152 Y104.643 E6.93864
G1 X94.428 Y103.925 E6.96422
G1 X94.773 Y103.247 E6.98952
G1 X95.778 Y101.502 E7.0565
G1 X96.196 Y100.856 E7.08209
G1 X96.694 Y100.241 E7.10841
G1 X98.045 Y98.742 E7.17553
G1 X98.589 Y98.198 E7.20112
G0 F6000 X98.872 Y98.481
G1 F1200 X99.427 Y98.033 E7.22484
G1 X101.062 Y96.845 E7.29206
G1 X101.69 Y96.438 E7.31695
G1 X102.328 Y96.114 E7.34075
G1 X104.166 Y95.295 E7.40768
G1 X104.864 Y95.028 E7.43253
G1 X105.556 Y94.843 E7.45636
G1 X106.809 Y94.576 E7.49897
G1 X107.548 Y94.459 E7.52385
G1 X108.295 Y94.422 E7.54873
G1 X109.042 Y94.465 E7.57362
G1 X109.78 Y94.587 E7.59849
G1 X110.003 Y94.649 E7.60619
G1 X110.473 Y94.537 E7.62226
G1 X111.215 Y94.442 E7.64714
G1 X111.963 Y94.427 E7.67203
G1 X112.708 Y94.491 E7.6969
G1 X113.192 Y94.577 E7.71325
G1 X114.444 Y94.844 E7.75583
G1 X115.166 Y95.039 E7.7807
G1 X115.829 Y95.294 E7.80433
G1 X117.668 Y96.112 E7.87127
G1 X118.334 Y96.452 E7.89614
G1 X118.934 Y96.842 E7.91994
G1 X120.57 Y98.029 E7.98717
G1 X121.151 Y98.5 E8.01205
G1 X121.686 Y99.039 E8.0373
G1 X121.933 Y99.316 E8.04965
G1 X123.006 Y100.505 E8.10292
G1 X123.477 Y101.087 E8.12782
G1 X123.875 Y101.701 E8.15216
G1 X124.88 Y103.446 E8.21913
G1 X125.218 Y104.114 E8.24403
G1 X125.468 Y104.767 E8.26729
G1 X126.094 Y106.684 E8.33436
G1 X126.288 Y107.407 E8.35926
G1 X126.402 Y108.129 E8.38357
G1 X126.612 Y110.136 E8.45069
G1 X126.65 Y110.883 E8.47557
G1 X126.612 Y111.591 E8.49915
G1 X126.402 Y113.601 E8.56636
G1 X126.285 Y114.34 E8.59125
G1 X126.095 Y115.046 E8.61557
G1 X125.469 Y116.964 E8.68267
G1 X125.199 Y117.662 E8.70756
G1 X124.881 Y118.284 E8.7308
G1 X123.876 Y120.03 E8.7978
G1 X123.468 Y120.658 E8.82271
G1 X123.007 Y121.226 E8.84704
G1 X121.656 Y122.724 E8.91414
G1 X121.126 Y123.252 E8.93902
G1 X120.572 Y123.699 E8.96269
G1 X118.938 Y124.886 E9.02987
G1 X118.31 Y125.293 E9.05476
G1 X117.678 Y125.615 E9.07835
G1 X115.839 Y126.436 E9.14533
G1 X115.14 Y126.704 E9.17023
G1 X114.439 Y126.891 E9.19436
G1 X113.186 Y127.157 E9.23697
G1 X112.447 Y127.273 E9.26185
G1 X111.699 Y127.31 E9.28676
G1 X110.953 Y127.266 E9.31161
G1 X110.215 Y127.144 E9.33649
G1 X109.996 Y127.083 E9.34405
G1 X109.527 Y127.195 E9.36009
G1 X108.785 Y127.29 E9.38497
G1 X108.037 Y127.305 E9.40985
G1 X107.292 Y127.241 E9.43472
G1 X106.813 Y127.156 E9.4509
G1 X105.561 Y126.89 E9.49348
G1 X104.839 Y126.696 E9.51834
G1 X104.167 Y126.437 E9.54229
G1 X102.327 Y125.617 E9.6093
G1 X101.661 Y125.276 E9.63418
G1 X101.066 Y124.889 E9.65779
G1 X99.431 Y123.703 E9.72497
G1 X98.85 Y123.232 E9.74985
G1 X98.321 Y122.701 E9.77478
G1 X98.044 Y122.391 E9.7886
G1 X96.994 Y121.228 E9.84072
G1 X96.523 Y120.646 E9.86562
G1 X96.124 Y120.03 E9.89003
G1 X95.119 Y118.284 E9.95703
G1 X94.781 Y117.617 E9.98191
G1 X94.531 Y116.964 E10.00516
G1 X93.905 Y115.046 E10.07227
G1 X93.712 Y114.323 E10.09716
G1 X93.598 Y113.603 E10.1214
G1 X93.388 Y111.597 E10.18849
G1 X93.35 Y110.85 E10.21336
G1 X93.388 Y110.141 E10.23698
G1 X93.598 Y108.13 E10.30423
G1 X93.715 Y107.391 E10.32911
G1 X93.906 Y106.684 E10.35347
G1 X94.532 Y104.767 E10.42054
G1 X94.802 Y104.069 E10.44544
G1 X95.12 Y103.446 E10.4687
G1 X96.125 Y101.701 E10.53568
G1 X96.533 Y101.074 E10.56056
G1 X96.991 Y100.509 E10.58475
G1 X98.342 Y99.01 E10.65187
G1 X98.872 Y98.481 E10.67677
G0 F6000 X99.155 Y98.765
G1 F1200 X99.662 Y98.357 E10.69842
G1 X101.297 Y97.169 E10.76564
G1 X101.908 Y96.775 E10.78982
G1 X102.491 Y96.479 E10.81156
G1 X104.329 Y95.66 E10.87849
G1 X105.007 Y95.402 E10.90262
G1 X105.639 Y95.234 E10.92437
G1 X106.892 Y94.967 E10.96698
G1 X107.61 Y94.855 E10.99115
G1 X108.336 Y94.822 E11.01532
G1 X109.061 Y94.87 E11.03949
G1 X109.776 Y94.997 E11.06364
G1 X109.995 Y95.061 E11.07123
G1 X110.103 Y95.027 E11.075
G1 X110.815 Y94.887 E11.09913
G1 X111.539 Y94.826 E11.1233
G1 X112.265 Y94.845 E11.14745
G1 X113.109 Y94.968 E11.17582
G1 X114.361 Y95.235 E11.2184
G1 X115.062 Y95.426 E11.24256
G1 X115.666 Y95.66 E11.26411
G1 X117.505 Y96.478 E11.33105
G1 X118.152 Y96.809 E11.35522
G1 X118.699 Y97.166 E11.37695
G1 X120.335 Y98.353 E11.44417
G1 X120.898 Y98.811 E11.46831
G1 X121.388 Y99.305 E11.49146
G1 X121.636 Y99.584 E11.50387
G1 X122.709 Y100.773 E11.55714
G1 X123.165 Y101.338 E11.58129
G1 X123.528 Y101.901 E11.60357
G1 X124.533 Y103.646 E11.67055
G1 X124.861 Y104.295 E11.69473
G1 X125.088 Y104.891 E11.71594
G1 X125.714 Y106.808 E11.78302
G1 X125.901 Y107.51 E11.80718
G1 X126.004 Y108.17 E11.8294
G1 X126.214 Y110.177 E11.89651
G1 X126.25 Y110.903 E11.92069
G1 X126.214 Y111.55 E11.94224
G1 X126.004 Y113.56 E12.00946
G1 X125.889 Y114.277 E12.03361
G1 X125.714 Y114.922 E12.05584
G1 X125.088 Y116.84 E12.12295
G1 X124.825 Y117.517 E12.1471
G1 X124.534 Y118.084 E12.1683
G1 X123.529 Y119.83 E12.2353
G1 X123.133 Y120.439 E12.25947
G1 X122.71 Y120.958 E12.28173
G1 X121.359 Y122.456 E12.34883
G1 X120.844 Y122.968 E12.37298
G1 X120.337 Y123.376 E12.39463
G1 X118.703 Y124.563 E12.4618
G1 X118.093 Y124.957 E12.48595
G1 X117.515 Y125.25 E12.50751
G1 X115.676 Y126.071 E12.57449
G1 X114.997 Y126.33 E12.59866
G1 X114.356 Y126.5 E12.62072
G1 X113.103 Y126.766 E12.66332
G1 X112.385 Y126.878 E12.68749
G1 X111.659 Y126.91 E12.71166
G1 X110.934 Y126.862 E12.73583
G1 X110.219 Y126.734 E12.75999
G1 X110.005 Y126.671 E12.76741
G1 X109.897 Y126.705 E12.77117
G1 X109.185 Y126.845 E12.79531
G1 X108.461 Y126.906 E12.81947
G1 X107.735 Y126.887 E12.84363
G1 X106.896 Y126.765 E12.87183
G1 X105.644 Y126.499 E12.9144
G1 X104.943 Y126.309 E12.93855
G1 X104.329 Y126.071 E12.96046
G1 X102.489 Y125.251 E13.02746
G1 X101.843 Y124.92 E13.0516
G1 X101.301 Y124.565 E13.07315
G1 X99.666 Y123.379 E13.14033
G1 X99.102 Y122.921 E13.16449
G1 X98.62 Y122.435 E13.18726
G1 X97.291 Y120.96 E13.2533
G1 X96.835 Y120.395 E13.27744
G1 X96.471 Y119.83 E13.2998
G1 X95.466 Y118.084 E13.3668
G1 X95.139 Y117.436 E13.39095
G1 X94.912 Y116.84 E13.41216
G1 X94.286 Y114.922 E13.47926
G1 X94.099 Y114.22 E13.50342
G1 X93.996 Y113.561 E13.52561
G1 X93.786 Y111.555 E13.59269
G1 X93.75 Y110.83 E13.61684
G1 X93.786 Y110.183 E13.63839
G1 X93.996 Y108.172 E13.70564
G1 X94.111 Y107.454 E13.72982
G1 X94.286 Y106.808 E13.75209
G1 X94.912 Y104.891 E13.81916
G1 X95.175 Y104.214 E13.84331
G1 X95.467 Y103.646 E13.86456
G1 X96.472 Y101.901 E13.93153
G1 X96.868 Y101.293 E13.95567
G1 X97.288 Y100.776 E13.97782
G1 X98.639 Y99.277 E14.04494
G1 X99.155 Y98.765 E14.06912
G0 F6000 X99.437 Y99.05
G1 F1200 X99.898 Y98.68 E14.08878
G1 X101.533 Y97.492 E14.156
G1 X102.125 Y97.111 E14.17941
G1 X102.654 Y96.845 E14.19911
G1 X104.492 Y96.026 E14.26603
G1 X105.15 Y95.776 E14.28944
G1 X105.723 Y95.625 E14.30915
G1 X106.976 Y95.358 E14.35176
G1 X107.672 Y95.251 E14.37518
G1 X108.375 Y95.223 E14.39858
G1 X109.077 Y95.275 E14.422
G1 X109.769 Y95.406 E14.44542
G1 X110.002 Y95.479 E14.45354
G1 X110.455 Y95.356 E14.46916
G1 X111.151 Y95.25 E14.49257
G1 X111.854 Y95.224 E14.51597
G1 X112.556 Y95.278 E14.53939
G1 X113.025 Y95.359 E14.55522
G1 X114.277 Y95.626 E14.59779
G1 X114.956 Y95.812 E14.62121
G1 X115.504 Y96.025 E14.64077
G1 X117.343 Y96.843 E14.70771
G1 X117.969 Y97.165 E14.73112
G1 X118.464 Y97.49 E14.75082
G1 X120.1 Y98.677 E14.81804
G1 X120.645 Y99.122 E14.84145
G1 X121.089 Y99.571 E14.86245
G1 X121.339 Y99.852 E14.87496
G1 X122.412 Y101.041 E14.92823
G1 X122.853 Y101.59 E14.95165
G1 X123.182 Y102.101 E14.97186
G1 X124.187 Y103.846 E15.03884
G1 X124.503 Y104.475 E15.06225
G1 X124.708 Y105.015 E15.08146
G1 X125.334 Y106.932 E15.14854
G1 X125.514 Y107.613 E15.17196
G1 X125.606 Y108.212 E15.19212
G1 X125.816 Y110.219 E15.25924
G1 X125.85 Y110.922 E15.28265
G1 X125.816 Y111.508 E15.30217
G1 X125.606 Y113.518 E15.36939
G1 X125.494 Y114.213 E15.3928
G1 X125.334 Y114.798 E15.41297
G1 X124.708 Y116.716 E15.48008
G1 X124.452 Y117.371 E15.50347
G1 X124.187 Y117.885 E15.5227
G1 X123.182 Y119.631 E15.58971
G1 X122.797 Y120.22 E15.61311
G1 X122.413 Y120.69 E15.6333
G1 X121.062 Y122.188 E15.70039
G1 X120.562 Y122.684 E15.72381
G1 X120.102 Y123.052 E15.74341
G1 X118.468 Y124.239 E15.81058
G1 X117.876 Y124.62 E15.834
G1 X117.351 Y124.884 E15.85354
G1 X115.512 Y125.705 E15.92053
G1 X114.854 Y125.955 E15.94394
G1 X114.273 Y126.109 E15.96393
G1 X113.02 Y126.375 E16.00653
G1 X112.324 Y126.482 E16.02995
G1 X111.62 Y126.509 E16.05339
G1 X110.918 Y126.456 E16.0768
G1 X110.227 Y126.324 E16.1002
G1 X109.999 Y126.253 E16.10814
G1 X109.545 Y126.376 E16.12379
G1 X108.849 Y126.482 E16.1472
G1 X108.146 Y126.508 E16.1706
G1 X107.444 Y126.454 E16.19402
G1 X106.98 Y126.374 E16.20968
G1 X105.728 Y126.108 E16.25225
G1 X105.048 Y125.922 E16.2757
G1 X104.492 Y125.706 E16.29554
G1 X102.652 Y124.886 E16.36254
G1 X102.027 Y124.563 E16.38594
G1 X101.536 Y124.242 E16.40545
G1 X99.901 Y123.056 E16.47263
G1 X99.355 Y122.611 E16.49606
G1 X98.918 Y122.168 E16.51675
G1 X97.588 Y120.692 E16.58283
G1 X97.147 Y120.143 E16.60626
G1 X96.818 Y119.631 E16.6265
G1 X95.813 Y117.885 E16.6935
G1 X95.497 Y117.256 E16.71692
G1 X95.292 Y116.716 E16.73613
G1 X94.666 Y114.798 E16.80323
G1 X94.486 Y114.117 E16.82666
G1 X94.394 Y113.52 E16.84675
G1 X94.184 Y111.514 E16.91383
G1 X94.15 Y110.81 E16.93728
G1 X94.184 Y110.224 E16.9568
G1 X94.394 Y108.213 E17.02405
G1 X94.506 Y107.518 E17.04746
G1 X94.666 Y106.932 E17.06767
G1 X95.292 Y105.015 E17.13474
G1 X95.548 Y104.36 E17.15813
G1 X95.813 Y103.846 E17.17737
G1 X96.818 Y102.101 E17.24434
G1 X97.204 Y101.512 E17.26776
