;FLAVOR:Marlin
;TIME:4295
;Filament used: 2.57396m
;Layer height: 0.16
;MINX:88.55
;MINY:69.893
;MINZ:0.2
;MAXX:131.485
;MAXY:128.219
;MAXZ:9.84
;Generated with Cura_SteamEngine 4.8.0
M140 S60
M105
M190 S60
M104 S200
M105
M109 S200
M82 ;absolute extrusion mode
M201 X500.00 Y500.00 Z100.00 E5000.00 ;Setup machine max acceleration
M203 X500.00 Y500.00 Z10.00 E50.00 ;Setup machine max feedrate
M204 P500.00 R1000.00 T500.00 ;Setup Print/Retract/Travel acceleration
M205 X8.00 Y8.00 Z0.40 E5.00 ;Setup Jerk
M220 S100 ;Reset Feedrate
M221 S100 ;Reset Flowrate

G28 ;Home

G92 E0 ;Reset Extruder
G1 Z2.0 F3000 ;Move Z Axis up
G1 X10.1 Y20 Z0.28 F5000.0 ;Move to start position
G1 X10.1 Y200.0 Z0.28 F1500.0 E15 ;Draw the first line
G1 X10.4 Y200.0 Z0.28 F5000.0 ;Move to side a little
G1 X10.4 Y20 Z0.28 F1500.0 E30 ;Draw the second line
G92 E0 ;Reset Extruder
G1 Z2.0 F3000 ;Move Z Axis up

G92 E0
G92 E0
G1 F1500 E-6.5
;LAYER_COUNT:62
;LAYER:0
M107
G0 F6000 X90.43 Y72.985 Z0.2
;TYPE:SKIRT
G1 F1500 E0
G1 F1200 X90.835 Y72.548 E0.01982
G1 X90.952 Y72.431 E0.02532
G1 X91.538 Y71.901 E0.0516
G1 X92.174 Y71.434 E0.07784
G1 X92.854 Y71.033 E0.1041
G1 X93.572 Y70.703 E0.13038
G1 X94.319 Y70.448 E0.15664
G1 X95.088 Y70.269 E0.1829
G1 X95.872 Y70.169 E0.20918
G1 X96.467 Y70.146 E0.22899
G1 X107.13 Y70.146 E0.58364
G1 X107.688 Y70.016 E0.6027
G1 X108.472 Y69.916 E0.62898
G1 X109.067 Y69.893 E0.64879
G1 X122.558 Y69.893 E1.0975
G1 X123.347 Y69.933 E1.12378
G1 X124.127 Y70.052 E1.15002
G1 X124.892 Y70.25 E1.1763
G1 X125.558 Y70.493 E1.19988
G1 X125.63 Y70.523 E1.20248
G1 X126.343 Y70.863 E1.22875
G1 X127.017 Y71.274 E1.25501
G1 X127.647 Y71.75 E1.28127
G1 X128.129 Y72.191 E1.303
G1 X129.118 Y73.174 E1.34938
G1 X129.649 Y73.758 E1.37563
G1 X130.118 Y74.393 E1.40188
G1 X130.521 Y75.072 E1.42815
G1 X130.798 Y75.657 E1.44967
G1 X130.829 Y75.73 E1.45231
G1 X131.101 Y76.472 E1.4786
G1 X131.296 Y77.237 E1.50486
G1 X131.413 Y78.018 E1.53112
G1 X131.45 Y78.779 E1.55646
G1 X131.45 Y84.512 E1.74714
G1 X131.41 Y85.301 E1.77342
G1 X131.291 Y86.081 E1.79966
G1 X131.116 Y86.757 E1.82289
G1 X131.121 Y87.239 E1.83892
G1 X131.089 Y88.028 E1.86518
G1 X131.085 Y88.211 E1.87127
G1 X131.121 Y88.971 E1.89658
G1 X131.12 Y89.531 E1.9152
G1 X131.158 Y89.644 E1.91917
G1 X131.333 Y90.414 E1.94543
G1 X131.43 Y91.198 E1.97171
G1 X131.45 Y91.757 E1.99031
G1 X131.45 Y97.491 E2.18102
G1 X131.41 Y98.28 E2.2073
G1 X131.367 Y98.563 E2.21682
G1 X131.462 Y99.309 E2.24183
G1 X131.485 Y99.904 E2.26164
G1 X131.485 Y107.602 E2.51767
G1 X131.445 Y108.391 E2.54395
G1 X131.326 Y109.171 E2.57019
G1 X131.128 Y109.936 E2.59648
G1 X131.109 Y109.987 E2.59829
G1 X131.183 Y110.203 E2.60588
G1 X131.362 Y110.972 E2.63214
G1 X131.462 Y111.756 E2.65843
G1 X131.485 Y112.351 E2.67823
G1 X131.485 Y120.048 E2.93424
G1 X131.445 Y120.837 E2.96051
G1 X131.326 Y121.617 E2.98675
G1 X131.128 Y122.382 E3.01304
G1 X130.854 Y123.122 E3.03928
G1 X130.506 Y123.831 E3.06555
G1 X130.088 Y124.502 E3.09184
G1 X129.605 Y125.126 E3.11809
G1 X129.2 Y125.563 E3.13791
G1 X129.083 Y125.68 E3.14341
G1 X128.497 Y126.21 E3.16969
G1 X127.861 Y126.677 E3.19593
G1 X127.181 Y127.078 E3.22219
G1 X126.463 Y127.408 E3.24847
G1 X125.716 Y127.663 E3.27473
G1 X124.947 Y127.842 E3.30099
G1 X124.163 Y127.942 E3.32727
G1 X123.568 Y127.965 E3.34708
G1 X112.91 Y127.965 E3.70156
G1 X112.347 Y128.096 E3.72079
G1 X111.563 Y128.196 E3.74708
G1 X110.968 Y128.219 E3.76688
G1 X97.477 Y128.219 E4.21559
G1 X96.688 Y128.179 E4.24187
G1 X95.908 Y128.06 E4.26811
G1 X95.143 Y127.862 E4.2944
G1 X94.477 Y127.619 E4.31798
G1 X94.405 Y127.589 E4.32057
G1 X93.692 Y127.249 E4.34684
G1 X93.018 Y126.838 E4.3731
G1 X92.388 Y126.362 E4.39936
G1 X91.906 Y125.921 E4.42109
G1 X90.917 Y124.938 E4.46747
G1 X90.386 Y124.354 E4.49372
G1 X89.917 Y123.719 E4.51998
G1 X89.514 Y123.04 E4.54624
G1 X89.237 Y122.455 E4.56777
G1 X89.206 Y122.382 E4.57041
G1 X88.934 Y121.64 E4.59669
G1 X88.739 Y120.875 E4.62295
G1 X88.622 Y120.094 E4.64921
G1 X88.585 Y119.333 E4.67456
G1 X88.585 Y113.599 E4.86527
G1 X88.625 Y112.81 E4.89154
G1 X88.744 Y112.03 E4.91779
G1 X88.917 Y111.362 E4.94074
G1 X88.913 Y110.859 E4.95747
G1 X88.947 Y110.07 E4.98374
G1 X88.954 Y109.953 E4.98763
G1 X88.914 Y109.151 E5.01434
G1 X88.915 Y108.584 E5.0332
G1 X88.882 Y108.487 E5.03661
G1 X88.705 Y107.717 E5.06289
G1 X88.606 Y106.934 E5.08914
G1 X88.585 Y106.356 E5.10837
G1 X88.585 Y100.62 E5.29915
G1 X88.625 Y99.831 E5.32543
G1 X88.668 Y99.548 E5.33495
G1 X88.573 Y98.802 E5.35996
G1 X88.55 Y98.207 E5.37977
G1 X88.55 Y90.51 E5.63577
G1 X88.59 Y89.721 E5.66205
G1 X88.709 Y88.941 E5.68829
G1 X88.907 Y88.176 E5.71457
G1 X88.926 Y88.125 E5.71638
G1 X88.852 Y87.909 E5.72398
G1 X88.673 Y87.14 E5.75024
G1 X88.573 Y86.356 E5.77652
G1 X88.55 Y85.761 E5.79633
G1 X88.55 Y78.063 E6.05237
G1 X88.59 Y77.274 E6.07864
G1 X88.709 Y76.494 E6.10488
G1 X88.907 Y75.729 E6.13117
G1 X89.181 Y74.989 E6.15741
G1 X89.529 Y74.28 E6.18368
G1 X89.947 Y73.609 E6.20997
G1 X90.43 Y72.985 E6.23622
G0 F6000 X90.825 Y73.14
G1 F1200 X91.117 Y72.83 E6.25038
G1 X91.234 Y72.713 E6.25589
G1 X91.806 Y72.199 E6.28147
G1 X92.428 Y71.746 E6.30706
G1 X93.093 Y71.36 E6.33263
G1 X93.795 Y71.045 E6.35822
G1 X94.526 Y70.805 E6.38381
G1 X95.277 Y70.642 E6.40937
G1 X96.042 Y70.558 E6.43497
G1 X96.467 Y70.546 E6.44911
G1 X107.154 Y70.546 E6.80456
G1 X107.877 Y70.389 E6.82917
G1 X108.642 Y70.305 E6.85477
G1 X109.067 Y70.293 E6.86891
G1 X122.558 Y70.293 E7.31762
G1 X123.326 Y70.333 E7.3432
G1 X124.086 Y70.452 E7.36879
G1 X124.829 Y70.65 E7.39436
G1 X125.404 Y70.862 E7.41474
G1 X125.476 Y70.892 E7.41734
G1 X126.17 Y71.225 E7.44294
G1 X126.825 Y71.627 E7.4685
G1 X127.435 Y72.095 E7.49407
G1 X127.847 Y72.475 E7.51271
G1 X128.836 Y73.458 E7.55909
G1 X129.352 Y74.027 E7.58464
G1 X129.807 Y74.648 E7.61025
G1 X130.195 Y75.312 E7.63582
G1 X130.43 Y75.814 E7.65426
G1 X130.461 Y75.887 E7.6569
G1 X130.725 Y76.609 E7.68247
G1 X130.912 Y77.355 E7.70805
G1 X131.02 Y78.117 E7.73364
G1 X131.05 Y78.779 E7.75569
G1 X131.05 Y84.512 E7.94637
G1 X131.01 Y85.28 E7.97194
G1 X130.891 Y86.04 E7.99753
G1 X130.715 Y86.699 E8.02022
G1 X130.721 Y87.243 E8.03831
G1 X130.689 Y88.012 E8.06391
G1 X130.691 Y88.289 E8.07312
G1 X130.721 Y88.97 E8.0958
G1 X130.72 Y89.595 E8.11658
G1 X130.779 Y89.771 E8.12276
G1 X130.946 Y90.522 E8.14835
G1 X131.035 Y91.286 E8.17393
G1 X131.05 Y91.757 E8.1896
G1 X131.05 Y97.491 E8.38032
G1 X131.01 Y98.259 E8.40589
G1 X130.96 Y98.58 E8.4167
G1 X130.989 Y98.714 E8.42126
G1 X131.073 Y99.479 E8.44686
G1 X131.085 Y99.904 E8.461
G1 X131.085 Y107.602 E8.71703
G1 X131.045 Y108.37 E8.74261
G1 X130.926 Y109.13 E8.7682
G1 X130.728 Y109.873 E8.79377
G1 X130.686 Y109.983 E8.79769
G1 X130.826 Y110.41 E8.81263
G1 X130.989 Y111.161 E8.83819
G1 X131.073 Y111.926 E8.86379
G1 X131.085 Y112.351 E8.87793
G1 X131.085 Y120.048 E9.13394
G1 X131.045 Y120.816 E9.15951
G1 X130.926 Y121.576 E9.1851
G1 X130.728 Y122.319 E9.21067
G1 X130.454 Y123.038 E9.23627
G1 X130.107 Y123.724 E9.26184
G1 X129.691 Y124.371 E9.28742
G1 X129.21 Y124.971 E9.313
G1 X128.918 Y125.281 E9.32716
G1 X128.801 Y125.398 E9.33266
G1 X128.229 Y125.912 E9.35824
G1 X127.607 Y126.365 E9.38383
G1 X126.942 Y126.751 E9.40941
G1 X126.24 Y127.066 E9.435
G1 X125.509 Y127.306 E9.46059
G1 X124.758 Y127.469 E9.48615
G1 X123.993 Y127.553 E9.51175
G1 X123.568 Y127.565 E9.52589
G1 X112.886 Y127.565 E9.88117
G1 X112.158 Y127.723 E9.90595
G1 X111.393 Y127.807 E9.93155
G1 X110.968 Y127.819 E9.94569
G1 X97.477 Y127.819 E10.3944
G1 X96.709 Y127.779 E10.41998
G1 X95.949 Y127.66 E10.44556
G1 X95.206 Y127.462 E10.47114
G1 X94.631 Y127.25 E10.49152
G1 X94.559 Y127.22 E10.49412
G1 X93.865 Y126.887 E10.51972
G1 X93.21 Y126.485 E10.54528
G1 X92.6 Y126.017 E10.57085
G1 X92.188 Y125.637 E10.58949
G1 X91.199 Y124.654 E10.63587
G1 X90.683 Y124.085 E10.66142
G1 X90.228 Y123.464 E10.68703
G1 X89.84 Y122.8 E10.7126
G1 X89.605 Y122.298 E10.73104
G1 X89.574 Y122.225 E10.73368
G1 X89.31 Y121.503 E10.75925
G1 X89.123 Y120.757 E10.78483
G1 X89.015 Y119.995 E10.81042
G1 X88.985 Y119.333 E10.83246
G1 X88.985 Y113.599 E11.02318
G1 X89.025 Y112.831 E11.04876
G1 X89.144 Y112.071 E11.07434
G1 X89.317 Y111.421 E11.09671
G1 X89.313 Y110.856 E11.11551
G1 X89.347 Y110.087 E11.14111
G1 X89.348 Y109.872 E11.14826
G1 X89.314 Y109.152 E11.17223
G1 X89.315 Y108.518 E11.19332
G1 X89.261 Y108.358 E11.19894
G1 X89.092 Y107.608 E11.22451
G1 X89.001 Y106.844 E11.2501
G1 X88.985 Y106.356 E11.26634
G1 X88.985 Y100.62 E11.45712
G1 X89.025 Y99.852 E11.4827
G1 X89.075 Y99.531 E11.4935
G1 X89.046 Y99.397 E11.49806
G1 X88.962 Y98.632 E11.52366
G1 X88.95 Y98.207 E11.5378
G1 X88.95 Y90.51 E11.7938
G1 X88.99 Y89.742 E11.81938
G1 X89.109 Y88.982 E11.84497
G1 X89.307 Y88.239 E11.87054
G1 X89.349 Y88.129 E11.87446
G1 X89.209 Y87.702 E11.8894
G1 X89.046 Y86.951 E11.91496
G1 X88.962 Y86.186 E11.94056
G1 X88.95 Y85.761 E11.9547
G1 X88.95 Y78.063 E12.21074
G1 X88.99 Y77.295 E12.23632
G1 X89.109 Y76.535 E12.2619
G1 X89.307 Y75.792 E12.28748
G1 X89.581 Y75.073 E12.31307
G1 X89.928 Y74.387 E12.33864
G1 X90.344 Y73.74 E12.36422
G1 X90.825 Y73.14 E12.3898
G0 F6000 X90.742 Y73.874
G1 F1200 X91.4 Y73.113 E12.42326
G1 X91.517 Y72.996 E12.42876
G1 X92.074 Y72.496 E12.45366
G1 X92.68 Y72.059 E12.47851
G1 X93.33 Y71.688 E12.5034
G1 X94.016 Y71.389 E12.52829
G1 X94.73 Y71.165 E12.55318
G1 X95.463 Y71.018 E12.57804
G1 X96.467 Y70.946 E12.61152
G1 X107.222 Y70.946 E12.96924
G1 X107.33 Y70.912 E12.973
G1 X108.063 Y70.765 E12.99787
G1 X109.067 Y70.693 E13.03135
G1 X122.558 Y70.693 E13.48006
G1 X123.305 Y70.733 E13.50494
G1 X124.043 Y70.852 E13.5298
G1 X124.765 Y71.05 E13.5547
G1 X125.25 Y71.231 E13.57192
G1 X125.322 Y71.261 E13.57451
G1 X125.996 Y71.586 E13.5994
G1 X126.632 Y71.98 E13.62429
G1 X127.222 Y72.44 E13.64917
G1 X127.565 Y72.758 E13.66473
G1 X128.554 Y73.741 E13.7111
G1 X129.055 Y74.296 E13.73597
G1 X129.495 Y74.901 E13.76085
G1 X129.867 Y75.55 E13.78573
G1 X130.062 Y75.97 E13.80113
G1 X130.093 Y76.043 E13.80377
G1 X130.348 Y76.746 E13.82865
G1 X130.527 Y77.472 E13.85352
G1 X130.627 Y78.214 E13.87842
G1 X130.65 Y78.779 E13.89722
G1 X130.65 Y84.512 E14.08791
G1 X130.61 Y85.259 E14.11279
G1 X130.491 Y85.997 E14.13765
G1 X130.315 Y86.64 E14.15982
G1 X130.321 Y87.248 E14.18005
G1 X130.288 Y87.995 E14.20491
G1 X130.265 Y88.146 E14.21
G1 X130.296 Y88.366 E14.21738
G1 X130.321 Y88.969 E14.23746
G1 X130.32 Y89.661 E14.26047
G1 X130.399 Y89.898 E14.26878
G1 X130.559 Y90.629 E14.29367
G1 X130.639 Y91.373 E14.31856
G1 X130.65 Y91.757 E14.33134
G1 X130.65 Y97.491 E14.52205
G1 X130.61 Y98.238 E14.54693
G1 X130.552 Y98.597 E14.55903
G1 X130.613 Y98.9 E14.56931
G1 X130.685 Y99.904 E14.60279
G1 X130.685 Y107.602 E14.85882
G1 X130.645 Y108.349 E14.8837
G1 X130.526 Y109.087 E14.90857
G1 X130.328 Y109.809 E14.93347
G1 X130.264 Y109.971 E14.93926
G1 X130.466 Y110.614 E14.96168
G1 X130.613 Y111.347 E14.98654
G1 X130.685 Y112.351 E15.02002
G1 X130.685 Y120.048 E15.27602
G1 X130.645 Y120.795 E15.3009
G1 X130.526 Y121.533 E15.32577
G1 X130.328 Y122.255 E15.35067
G1 X130.055 Y122.951 E15.37553
G1 X129.708 Y123.614 E15.40042
G1 X129.293 Y124.237 E15.42532
G1 X128.635 Y124.998 E15.45878
G1 X128.518 Y125.115 E15.46428
G1 X127.961 Y125.615 E15.48918
G1 X127.355 Y126.052 E15.51403
G1 X126.705 Y126.423 E15.53892
G1 X126.019 Y126.722 E15.56381
G1 X125.305 Y126.946 E15.5887
G1 X124.572 Y127.093 E15.61357
G1 X123.568 Y127.165 E15.64704
G1 X112.817 Y127.165 E16.00462
G1 X112.705 Y127.2 E16.00853
G1 X111.972 Y127.347 E16.03339
G1 X110.968 Y127.419 E16.06687
G1 X97.477 Y127.419 E16.51558
G1 X96.73 Y127.379 E16.54046
G1 X95.992 Y127.26 E16.56533
G1 X95.27 Y127.062 E16.59023
G1 X94.785 Y126.881 E16.60745
G1 X94.713 Y126.851 E16.61004
G1 X94.039 Y126.526 E16.63493
G1 X93.403 Y126.132 E16.65981
G1 X92.813 Y125.672 E16.68469
G1 X92.47 Y125.354 E16.70025
G1 X91.481 Y124.371 E16.74663
G1 X90.98 Y123.816 E16.7715
G1 X90.54 Y123.211 E16.79638
G1 X90.168 Y122.562 E16.82126
G1 X89.973 Y122.142 E16.83666
G1 X89.942 Y122.069 E16.8393
G1 X89.687 Y121.366 E16.86417
G1 X89.508 Y120.64 E16.88904
G1 X89.408 Y119.898 E16.91394
G1 X89.385 Y119.333 E16.93275
G1 X89.385 Y113.599 E17.12346
G1 X89.425 Y112.852 E17.14835
G1 X89.544 Y112.114 E17.17321
G1 X89.718 Y111.48 E17.19508
G1 X89.713 Y110.853 E17.21593
G1 X89.748 Y110.105 E17.24084
G1 X89.742 Y109.793 E17.25122
G1 X89.714 Y109.153 E17.27252
G1 X89.715 Y108.451 E17.29587
G1 X89.641 Y108.23 E17.30362
G1 X89.479 Y107.5 E17.32849
G1 X89.396 Y106.756 E17.35339
G1 X89.385 Y106.356 E17.3667
G1 X89.385 Y100.62 E17.55748
G1 X89.425 Y99.873 E17.58236
G1 X89.483 Y99.514 E17.59446
G1 X89.422 Y99.211 E17.60474
G1 X89.35 Y98.207 E17.63822
G1 X89.35 Y90.51 E17.89422
G1 X89.39 Y89.763 E17.9191
G1 X89.509 Y89.025 E17.94396
G1 X89.707 Y88.303 E17.96886
G1 X89.771 Y88.141 E17.97466
G1 X89.569 Y87.498 E17.99707
G1 X89.422 Y86.765 E18.02194
G1 X89.35 Y85.761 E18.05542
G1 X89.35 Y78.063 E18.31145
G1 X89.39 Y77.316 E18.33634
G1 X89.509 Y76.578 E18.3612
G1 X89.707 Y75.856 E18.3861
G1 X89.98 Y75.16 E18.41096
G1 X90.327 Y74.497 E18.43585
G1 X90.742 Y73.874 E18.46075
G0 F6000 X91.139 Y74.013
G1 F1200 X91.683 Y73.396 E18.48811
G1 X91.8 Y73.279 E18.49361
G1 X92.341 Y72.795 E18.51776
G1 X92.932 Y72.372 E18.54193
G1 X93.566 Y72.018 E18.56608
G1 X94.235 Y71.735 E18.59024
G1 X94.931 Y71.527 E18.6144
G1 X95.646 Y71.397 E18.63857
G1 X96.467 Y71.346 E18.66593
G1 X107.29 Y71.346 E19.02591
G1 X107.531 Y71.274 E19.03427
G1 X108.246 Y71.144 E19.05844
G1 X109.067 Y71.093 E19.0858
G1 X122.558 Y71.093 E19.53452
G1 X123.283 Y71.133 E19.55867
G1 X124 Y71.252 E19.58284
G1 X124.699 Y71.45 E19.607
G1 X125.096 Y71.601 E19.62113
G1 X125.168 Y71.631 E19.62372
G1 X125.823 Y71.947 E19.64791
G1 X126.438 Y72.332 E19.67204
G1 X127.007 Y72.783 E19.69619
G1 X127.283 Y73.042 E19.70878
G1 X128.272 Y74.025 E19.75516
G1 X128.758 Y74.565 E19.77932
G1 X129.182 Y75.154 E19.80346
G1 X129.538 Y75.787 E19.82762
G1 X129.694 Y76.126 E19.84003
G1 X129.725 Y76.199 E19.84267
G1 X129.972 Y76.882 E19.86682
G1 X130.142 Y77.589 E19.89101
G1 X130.233 Y78.309 E19.91515
G1 X130.25 Y78.779 E19.93079
G1 X130.25 Y84.512 E20.12147
G1 X130.21 Y85.237 E20.14562
G1 X130.091 Y85.954 E20.16979
G1 X129.913 Y86.532 E20.18991
G1 X129.921 Y87.252 E20.21386
G1 X129.888 Y87.977 E20.238
G1 X129.861 Y88.148 E20.24375
G1 X129.901 Y88.442 E20.25362
G1 X129.921 Y88.969 E20.27116
G1 X129.92 Y89.726 E20.29634
G1 X130.019 Y90.025 E20.30682
G1 X130.17 Y90.735 E20.33096
G1 X130.25 Y91.757 E20.36506
G1 X130.25 Y97.491 E20.55577
G1 X130.21 Y98.216 E20.57992
G1 X130.146 Y98.6 E20.59287
G1 X130.234 Y99.083 E20.6092
G1 X130.285 Y99.904 E20.63656
G1 X130.285 Y107.602 E20.89259
G1 X130.245 Y108.327 E20.91674
G1 X130.126 Y109.044 E20.94092
G1 X129.928 Y109.743 E20.96508
G1 X129.834 Y109.974 E20.97337
G1 X129.896 Y110.119 E20.97862
G1 X130.104 Y110.815 E21.00278
G1 X130.234 Y111.53 E21.02695
G1 X130.285 Y112.351 E21.05431
G1 X130.285 Y120.048 E21.31031
G1 X130.245 Y120.773 E21.33446
G1 X130.126 Y121.49 E21.35864
G1 X129.928 Y122.189 E21.3828
G1 X129.655 Y122.862 E21.40696
G1 X129.31 Y123.501 E21.43111
G1 X128.896 Y124.098 E21.45527
G1 X128.352 Y124.715 E21.48263
G1 X128.235 Y124.832 E21.48814
G1 X127.694 Y125.316 E21.51228
G1 X127.103 Y125.739 E21.53645
G1 X126.469 Y126.093 E21.5606
G1 X125.8 Y126.376 E21.58476
G1 X125.104 Y126.584 E21.60892
G1 X124.389 Y126.714 E21.6331
G1 X123.568 Y126.765 E21.66045
G1 X112.748 Y126.765 E22.02033
G1 X112.504 Y126.838 E22.0288
G1 X111.789 Y126.968 E22.05297
G1 X110.968 Y127.019 E22.08033
G1 X97.477 Y127.019 E22.52904
G1 X96.752 Y126.979 E22.55319
G1 X96.035 Y126.86 E22.57737
G1 X95.336 Y126.662 E22.60153
G1 X94.939 Y126.511 E22.61566
G1 X94.867 Y126.481 E22.61825
G1 X94.212 Y126.165 E22.64244
G1 X93.597 Y125.78 E22.66657
G1 X93.028 Y125.329 E22.69072
G1 X92.752 Y125.07 E22.70331
G1 X91.763 Y124.087 E22.74969
G1 X91.277 Y123.547 E22.77385
G1 X90.853 Y122.958 E22.79799
G1 X90.497 Y122.325 E22.82214
G1 X90.341 Y121.986 E22.83456
G1 X90.31 Y121.913 E22.83719
G1 X90.063 Y121.23 E22.86135
G1 X89.893 Y120.523 E22.88554
G1 X89.802 Y119.803 E22.90967
