;FLAVOR:Marlin
;TIME:30149
;Filament used: 24.9623m
;Layer height: 0.16
;MINX:68.075
;MINY:56.35
;MINZ:0.2
;MAXX:151.925
;MAXY:143.35
;MAXZ:119.04
;Generated with Cura_SteamEngine 4.8.0
M140 S60
M105
M190 S60
M104 S200
M105
M109 S200
M82 ;absolute extrusion mode
M201 X500.00 Y500.00 Z100.00 E5000.00 ;Setup machine max acceleration
M203 X500.00 Y500.00 Z10.00 E50.00 ;Setup machine max feedrate
M204 P500.00 R1000.00 T500.00 ;Setup Print/Retract/Travel acceleration
M205 X8.00 Y8.00 Z0.40 E5.00 ;Setup Jerk
M220 S100 ;Reset Feedrate
M221 S100 ;Reset Flowrate

G28 ;Home

G92 E0 ;Reset Extruder
G1 Z2.0 F3000 ;Move Z Axis up
G1 X10.1 Y20 Z0.28 F5000.0 ;Move to start position
G1 X10.1 Y200.0 Z0.28 F1500.0 E15 ;Draw the first line
G1 X10.4 Y200.0 Z0.28 F5000.0 ;Move to side a little
G1 X10.4 Y20 Z0.28 F1500.0 E30 ;Draw the second line
G92 E0 ;Reset Extruder
G1 Z2.0 F3000 ;Move Z Axis up

G92 E0
G92 E0
G1 F1500 E-6.5
;LAYER_COUNT:664
;LAYER:0
M107
G0 F6000 X69.955 Y59.072 Z0.2
;TYPE:SKIRT
G1 F1500 E0
G1 F1200 X70.498 Y58.499 E0.02626
G1 X71.097 Y57.984 E0.05253
G1 X71.745 Y57.533 E0.07879
G1 X72.436 Y57.149 E0.10508
G1 X73.161 Y56.837 E0.13133
G1 X73.914 Y56.6 E0.15759
G1 X74.688 Y56.441 E0.18387
G1 X75.473 Y56.36 E0.21012
G1 X75.875 Y56.35 E0.22349
G1 X144.125 Y56.35 E2.4935
G1 X144.914 Y56.39 E2.51977
G1 X145.694 Y56.509 E2.54602
G1 X146.459 Y56.707 E2.5723
G1 X147.199 Y56.981 E2.59854
G1 X147.908 Y57.329 E2.62481
G1 X148.579 Y57.747 E2.65111
G1 X149.203 Y58.23 E2.67735
G1 X149.776 Y58.773 E2.70361
G1 X150.291 Y59.372 E2.72988
G1 X150.742 Y60.02 E2.75614
G1 X151.126 Y60.711 E2.78243
G1 X151.438 Y61.436 E2.80869
G1 X151.675 Y62.189 E2.83494
G1 X151.834 Y62.963 E2.86122
G1 X151.915 Y63.748 E2.88747
G1 X151.925 Y64.15 E2.90085
G1 X151.925 Y69.39 E3.07513
G1 X151.885 Y70.179 E3.1014
G1 X151.766 Y70.959 E3.12765
G1 X151.568 Y71.724 E3.15393
G1 X151.294 Y72.464 E3.18018
G1 X150.946 Y73.173 E3.20644
G1 X150.528 Y73.844 E3.23274
G1 X150.045 Y74.468 E3.25898
G1 X149.502 Y75.041 E3.28524
G1 X148.903 Y75.556 E3.31151
G1 X148.255 Y76.007 E3.33777
G1 X147.564 Y76.391 E3.36407
G1 X146.839 Y76.703 E3.39032
G1 X146.086 Y76.94 E3.41657
G1 X145.312 Y77.099 E3.44285
G1 X144.437 Y77.184 E3.47209
G1 X144.187 Y77.194 E3.48042
G1 X143.875 Y77.2 E3.49079
G1 X125.675 Y77.201 E4.09613
G1 X125.675 Y135.55 E6.03682
G1 X125.635 Y136.339 E6.0631
G1 X125.516 Y137.119 E6.08934
G1 X125.318 Y137.884 E6.11563
G1 X125.044 Y138.624 E6.14187
G1 X124.696 Y139.333 E6.16814
G1 X124.278 Y140.004 E6.19443
G1 X123.795 Y140.628 E6.22068
G1 X123.252 Y141.201 E6.24694
G1 X122.653 Y141.716 E6.27321
G1 X122.005 Y142.167 E6.29947
G1 X121.314 Y142.551 E6.32576
G1 X120.589 Y142.863 E6.35201
G1 X119.836 Y143.1 E6.37827
G1 X119.062 Y143.259 E6.40455
G1 X118.277 Y143.34 E6.4308
G1 X117.875 Y143.35 E6.44417
G1 X75.875 Y143.35 E7.8411
G1 X75.086 Y143.31 E7.86737
G1 X74.306 Y143.191 E7.89362
G1 X73.541 Y142.993 E7.9199
G1 X72.801 Y142.719 E7.94615
G1 X72.092 Y142.371 E7.97241
G1 X71.421 Y141.953 E7.99871
G1 X70.797 Y141.47 E8.02495
G1 X70.224 Y140.927 E8.05121
G1 X69.709 Y140.328 E8.07748
G1 X69.258 Y139.68 E8.10374
G1 X68.874 Y138.989 E8.13003
G1 X68.562 Y138.264 E8.15629
G1 X68.325 Y137.511 E8.18254
G1 X68.166 Y136.737 E8.20882
G1 X68.085 Y135.952 E8.23507
G1 X68.075 Y135.55 E8.24845
G1 X68.075 Y64.15 E10.62322
G1 X68.115 Y63.361 E10.6495
G1 X68.234 Y62.581 E10.67574
G1 X68.432 Y61.816 E10.70202
G1 X68.706 Y61.076 E10.72827
G1 X69.054 Y60.367 E10.75454
G1 X69.472 Y59.696 E10.78083
G1 X69.955 Y59.072 E10.80707
G0 F6000 X70.35 Y59.227
G1 F1200 X70.891 Y58.68 E10.83266
G1 X71.486 Y58.192 E10.85826
G1 X72.128 Y57.769 E10.88383
G1 X72.811 Y57.414 E10.90943
G1 X73.526 Y57.133 E10.93498
G1 X74.268 Y56.927 E10.96059
G1 X75.026 Y56.799 E10.98616
G1 X75.875 Y56.75 E11.01445
G1 X144.125 Y56.75 E13.28445
G1 X144.893 Y56.79 E13.31003
G1 X145.653 Y56.909 E13.33562
G1 X146.396 Y57.107 E13.36119
G1 X147.115 Y57.381 E13.38678
G1 X147.801 Y57.728 E13.41235
G1 X148.448 Y58.144 E13.43794
G1 X149.048 Y58.625 E13.46351
G1 X149.595 Y59.166 E13.4891
G1 X150.083 Y59.761 E13.5147
G1 X150.506 Y60.403 E13.54027
G1 X150.861 Y61.086 E13.56587
G1 X151.142 Y61.801 E13.59142
G1 X151.348 Y62.543 E13.61703
G1 X151.476 Y63.301 E13.6426
G1 X151.525 Y64.15 E13.67089
G1 X151.525 Y69.39 E13.84517
G1 X151.485 Y70.158 E13.87075
G1 X151.366 Y70.918 E13.89633
G1 X151.168 Y71.661 E13.92191
G1 X150.894 Y72.38 E13.9475
G1 X150.547 Y73.066 E13.97307
G1 X150.131 Y73.713 E13.99865
G1 X149.65 Y74.313 E14.02423
G1 X149.109 Y74.86 E14.04982
G1 X148.514 Y75.348 E14.07541
G1 X147.872 Y75.771 E14.10098
G1 X147.189 Y76.126 E14.12659
G1 X146.474 Y76.407 E14.15214
G1 X145.732 Y76.613 E14.17775
G1 X144.974 Y76.741 E14.20332
G1 X144.421 Y76.784 E14.22177
G1 X144.171 Y76.794 E14.23009
G1 X143.875 Y76.8 E14.23993
G1 X125.275 Y76.801 E14.85857
G1 X125.275 Y135.55 E16.81257
G1 X125.235 Y136.318 E16.83815
G1 X125.116 Y137.078 E16.86374
G1 X124.918 Y137.821 E16.88931
G1 X124.644 Y138.54 E16.9149
G1 X124.297 Y139.226 E16.94047
G1 X123.881 Y139.873 E16.96606
G1 X123.4 Y140.473 E16.99163
G1 X122.859 Y141.02 E17.01722
G1 X122.264 Y141.508 E17.04282
G1 X121.622 Y141.931 E17.06839
G1 X120.939 Y142.286 E17.09399
G1 X120.224 Y142.567 E17.11954
G1 X119.482 Y142.773 E17.14515
G1 X118.724 Y142.901 E17.17072
G1 X117.875 Y142.95 E17.19901
G1 X75.875 Y142.95 E18.59593
G1 X75.107 Y142.91 E18.62151
G1 X74.347 Y142.791 E18.6471
G1 X73.604 Y142.593 E18.67267
G1 X72.885 Y142.319 E18.69826
G1 X72.199 Y141.972 E18.72383
G1 X71.552 Y141.556 E18.74942
G1 X70.952 Y141.075 E18.77499
G1 X70.405 Y140.534 E18.80058
G1 X69.917 Y139.939 E18.82618
G1 X69.494 Y139.297 E18.85175
G1 X69.139 Y138.614 E18.87735
G1 X68.858 Y137.899 E18.9029
G1 X68.652 Y137.157 E18.92851
G1 X68.524 Y136.399 E18.95408
G1 X68.475 Y135.55 E18.98237
G1 X68.475 Y64.15 E21.35714
G1 X68.515 Y63.382 E21.38272
G1 X68.634 Y62.622 E21.4083
G1 X68.832 Y61.879 E21.43388
G1 X69.106 Y61.16 E21.45947
G1 X69.453 Y60.474 E21.48504
G1 X69.869 Y59.827 E21.51062
G1 X70.35 Y59.227 E21.5362
G0 F6000 X70.746 Y59.387
G1 F1200 X71.283 Y58.866 E21.56109
G1 X71.873 Y58.407 E21.58595
G1 X72.509 Y58.012 E21.61085
G1 X73.183 Y57.688 E21.63572
G1 X73.888 Y57.438 E21.6606
G1 X74.616 Y57.264 E21.6855
G1 X75.358 Y57.169 E21.71038
G1 X75.875 Y57.15 E21.72758
G1 X144.125 Y57.15 E23.99759
G1 X144.872 Y57.19 E24.02247
G1 X145.61 Y57.309 E24.04733
G1 X146.332 Y57.507 E24.07223
G1 X147.028 Y57.78 E24.0971
G1 X147.691 Y58.127 E24.12199
G1 X148.314 Y58.542 E24.14689
G1 X148.888 Y59.021 E24.17175
G1 X149.409 Y59.558 E24.19664
G1 X149.868 Y60.148 E24.2215
G1 X150.263 Y60.784 E24.2464
G1 X150.587 Y61.458 E24.27127
G1 X150.837 Y62.163 E24.29615
G1 X151.011 Y62.891 E24.32105
G1 X151.106 Y63.633 E24.34593
G1 X151.125 Y64.15 E24.36314
G1 X151.125 Y69.39 E24.53742
G1 X151.085 Y70.137 E24.5623
G1 X150.966 Y70.875 E24.58716
G1 X150.768 Y71.597 E24.61206
G1 X150.495 Y72.293 E24.63693
G1 X150.148 Y72.956 E24.66182
G1 X149.733 Y73.579 E24.68672
G1 X149.254 Y74.153 E24.71158
G1 X148.717 Y74.674 E24.73647
G1 X148.127 Y75.133 E24.76133
G1 X147.491 Y75.528 E24.78623
G1 X146.817 Y75.852 E24.8111
G1 X146.112 Y76.102 E24.83598
G1 X145.384 Y76.276 E24.86088
G1 X144.405 Y76.384 E24.89364
G1 X144.155 Y76.394 E24.90196
G1 X143.875 Y76.4 E24.91127
G1 X124.875 Y76.401 E25.54322
G1 X124.875 Y135.55 E27.51052
G1 X124.835 Y136.297 E27.5354
G1 X124.716 Y137.035 E27.56026
G1 X124.518 Y137.757 E27.58516
G1 X124.245 Y138.453 E27.61003
G1 X123.898 Y139.116 E27.63492
G1 X123.483 Y139.739 E27.65982
G1 X123.004 Y140.313 E27.68468
G1 X122.467 Y140.834 E27.70957
G1 X121.877 Y141.293 E27.73443
G1 X121.241 Y141.688 E27.75933
G1 X120.567 Y142.012 E27.7842
G1 X119.862 Y142.262 E27.80908
G1 X119.134 Y142.436 E27.83398
G1 X118.392 Y142.531 E27.85886
G1 X117.875 Y142.55 E27.87607
G1 X75.875 Y142.55 E29.27299
G1 X75.128 Y142.51 E29.29787
G1 X74.39 Y142.391 E29.32274
G1 X73.668 Y142.193 E29.34764
G1 X72.972 Y141.92 E29.3725
G1 X72.309 Y141.573 E29.39739
G1 X71.686 Y141.158 E29.42229
G1 X71.112 Y140.679 E29.44715
G1 X70.591 Y140.142 E29.47204
G1 X70.132 Y139.552 E29.4969
G1 X69.737 Y138.916 E29.5218
G1 X69.413 Y138.242 E29.54668
G1 X69.163 Y137.537 E29.57156
G1 X68.989 Y136.809 E29.59645
G1 X68.894 Y136.067 E29.62133
G1 X68.875 Y135.55 E29.63854
G1 X68.875 Y64.15 E32.01331
G1 X68.915 Y63.403 E32.03819
G1 X69.034 Y62.665 E32.06306
G1 X69.232 Y61.943 E32.08796
G1 X69.505 Y61.247 E32.11282
G1 X69.852 Y60.584 E32.13771
G1 X70.267 Y59.961 E32.16261
G1 X70.746 Y59.387 E32.18748
G0 F6000 X70.664 Y60.1
G1 F1200 X71.14 Y59.552 E32.21162
G1 X71.674 Y59.059 E32.23579
G1 X72.259 Y58.629 E32.25994
G1 X72.888 Y58.265 E32.28411
G1 X73.553 Y57.972 E32.30828
G1 X74.246 Y57.754 E32.33244
G1 X74.958 Y57.614 E32.35658
G1 X75.875 Y57.55 E32.38715
G1 X144.125 Y57.55 E34.65715
G1 X144.85 Y57.59 E34.6813
G1 X145.567 Y57.709 E34.70548
G1 X146.266 Y57.907 E34.72964
G1 X146.939 Y58.18 E34.7538
G1 X147.578 Y58.525 E34.77795
G1 X148.175 Y58.939 E34.80211
G1 X148.723 Y59.415 E34.82626
G1 X149.216 Y59.949 E34.85043
G1 X149.646 Y60.534 E34.87458
G1 X150.01 Y61.163 E34.89875
G1 X150.303 Y61.828 E34.92292
G1 X150.521 Y62.521 E34.94708
G1 X150.661 Y63.233 E34.97122
G1 X150.725 Y64.15 E35.00179
G1 X150.725 Y69.39 E35.17607
G1 X150.685 Y70.115 E35.20022
G1 X150.566 Y70.832 E35.2244
G1 X150.368 Y71.531 E35.24856
G1 X150.095 Y72.204 E35.27272
G1 X149.75 Y72.843 E35.29687
G1 X149.336 Y73.44 E35.32103
G1 X148.86 Y73.988 E35.34517
G1 X148.326 Y74.481 E35.36935
G1 X147.741 Y74.911 E35.3935
G1 X147.112 Y75.275 E35.41767
G1 X146.447 Y75.568 E35.44184
G1 X145.754 Y75.786 E35.466
G1 X145.042 Y75.926 E35.49013
G1 X144.389 Y75.985 E35.51194
G1 X144.139 Y75.995 E35.52026
G1 X143.875 Y76 E35.52904
G1 X124.475 Y76.001 E36.17429
G1 X124.475 Y135.55 E38.1549
G1 X124.435 Y136.275 E38.17905
G1 X124.316 Y136.992 E38.20322
G1 X124.118 Y137.691 E38.22739
G1 X123.845 Y138.364 E38.25154
G1 X123.5 Y139.003 E38.2757
G1 X123.086 Y139.6 E38.29986
G1 X122.61 Y140.148 E38.324
G1 X122.076 Y140.641 E38.34817
G1 X121.491 Y141.071 E38.37232
G1 X120.862 Y141.435 E38.39649
G1 X120.197 Y141.728 E38.42066
G1 X119.504 Y141.946 E38.44483
G1 X118.792 Y142.086 E38.46896
G1 X117.875 Y142.15 E38.49953
G1 X75.875 Y142.15 E39.89646
G1 X75.15 Y142.11 E39.92061
G1 X74.433 Y141.991 E39.94478
G1 X73.734 Y141.793 E39.96895
G1 X73.061 Y141.52 E39.9931
G1 X72.422 Y141.175 E40.01726
G1 X71.825 Y140.761 E40.04142
G1 X71.277 Y140.285 E40.06556
G1 X70.784 Y139.751 E40.08973
G1 X70.354 Y139.166 E40.11388
G1 X69.99 Y138.537 E40.13805
G1 X69.697 Y137.872 E40.16222
G1 X69.479 Y137.179 E40.18639
G1 X69.339 Y136.467 E40.21052
G1 X69.275 Y135.55 E40.24109
G1 X69.275 Y64.15 E42.61587
G1 X69.315 Y63.425 E42.64002
G1 X69.434 Y62.708 E42.66419
G1 X69.632 Y62.009 E42.68836
G1 X69.905 Y61.336 E42.71251
G1 X70.25 Y60.697 E42.73666
G1 X70.664 Y60.1 E42.76083
G0 F6000 X71.06 Y60.244
G1 F1200 X71.534 Y59.723 E42.78426
G1 X72.064 Y59.259 E42.80768
G1 X72.643 Y58.859 E42.83109
G1 X73.264 Y58.527 E42.85451
G1 X73.918 Y58.267 E42.87792
G1 X74.598 Y58.083 E42.90135
G1 X75.294 Y57.977 E42.92477
G1 X75.875 Y57.95 E42.94411
G1 X144.125 Y57.95 E45.21411
G1 X144.828 Y57.99 E45.23753
G1 X145.522 Y58.109 E45.26095
G1 X146.197 Y58.307 E45.28435
G1 X146.846 Y58.579 E45.30776
G1 X147.46 Y58.924 E45.33118
G1 X148.031 Y59.335 E45.35458
G1 X148.552 Y59.809 E45.37801
G1 X149.016 Y60.339 E45.40144
G1 X149.416 Y60.918 E45.42484
G1 X149.748 Y61.539 E45.44826
G1 X150.008 Y62.193 E45.47167
G1 X150.192 Y62.873 E45.4951
G1 X150.298 Y63.569 E45.51852
G1 X150.325 Y64.15 E45.53786
G1 X150.325 Y69.39 E45.71215
G1 X150.285 Y70.093 E45.73556
G1 X150.166 Y70.787 E45.75898
G1 X149.968 Y71.462 E45.78238
G1 X149.696 Y72.111 E45.80579
G1 X149.351 Y72.725 E45.82921
G1 X148.94 Y73.296 E45.85261
G1 X148.466 Y73.817 E45.87604
G1 X147.936 Y74.281 E45.89947
G1 X147.357 Y74.681 E45.92287
G1 X146.736 Y75.013 E45.94629
G1 X146.082 Y75.273 E45.9697
G1 X145.402 Y75.457 E45.99313
G1 X144.373 Y75.585 E46.02762
G1 X144.123 Y75.595 E46.03594
G1 X143.875 Y75.6 E46.04419
G1 X124.075 Y75.601 E46.70274
G1 X124.075 Y135.55 E48.69665
G1 X124.035 Y136.253 E48.72007
G1 X123.916 Y136.947 E48.74349
G1 X123.718 Y137.622 E48.76689
G1 X123.446 Y138.271 E48.79029
G1 X123.101 Y138.885 E48.81372
G1 X122.69 Y139.456 E48.83712
G1 X122.216 Y139.977 E48.86055
G1 X121.686 Y140.441 E48.88398
G1 X121.107 Y140.841 E48.90738
G1 X120.486 Y141.173 E48.9308
G1 X119.832 Y141.433 E48.95421
G1 X119.152 Y141.617 E48.97764
G1 X118.456 Y141.723 E49.00106
G1 X117.875 Y141.75 E49.0204
G1 X75.875 Y141.75 E50.41733
G1 X75.172 Y141.71 E50.44075
G1 X74.478 Y141.591 E50.46417
G1 X73.803 Y141.393 E50.48756
G1 X73.154 Y141.121 E50.51097
G1 X72.54 Y140.776 E50.53439
G1 X71.969 Y140.365 E50.55779
G1 X71.448 Y139.891 E50.58122
G1 X70.984 Y139.361 E50.60465
G1 X70.584 Y138.782 E50.62805
G1 X70.252 Y138.161 E50.65148
G1 X69.992 Y137.507 E50.67488
G1 X69.808 Y136.827 E50.69831
G1 X69.702 Y136.131 E50.72173
G1 X69.675 Y135.55 E50.74107
G1 X69.675 Y64.15 E53.11585
G1 X69.715 Y63.447 E53.13927
G1 X69.834 Y62.753 E53.16269
G1 X70.032 Y62.078 E53.18608
G1 X70.304 Y61.429 E53.20949
G1 X70.649 Y60.815 E53.23291
G1 X71.06 Y60.244 E53.25631
G0 F6000 X71.457 Y60.392
G1 F1200 X71.928 Y59.901 E53.27894
G1 X72.453 Y59.467 E53.3016
G1 X73.025 Y59.098 E53.32424
G1 X73.637 Y58.799 E53.34689
G1 X74.279 Y58.574 E53.36952
G1 X74.944 Y58.425 E53.39219
G1 X75.875 Y58.35 E53.42325
G1 X144.125 Y58.35 E55.69326
G1 X144.805 Y58.39 E55.71591
G1 X145.475 Y58.509 E55.73854
G1 X146.127 Y58.706 E55.7612
G1 X146.751 Y58.978 E55.78384
G1 X147.339 Y59.322 E55.8065
G1 X147.883 Y59.732 E55.82915
G1 X148.374 Y60.203 E55.85178
G1 X148.808 Y60.728 E55.87444
G1 X149.177 Y61.3 E55.89708
G1 X149.476 Y61.912 E55.91973
G1 X149.701 Y62.554 E55.94236
G1 X149.85 Y63.219 E55.96503
G1 X149.925 Y64.15 E55.99609
G1 X149.925 Y69.39 E56.17037
G1 X149.885 Y70.07 E56.19303
G1 X149.766 Y70.74 E56.21566
G1 X149.569 Y71.392 E56.23832
G1 X149.297 Y72.016 E56.26096
G1 X148.953 Y72.604 E56.28362
G1 X148.543 Y73.148 E56.30627
G1 X148.072 Y73.639 E56.3289
G1 X147.547 Y74.073 E56.35156
G1 X146.975 Y74.442 E56.3742
G1 X146.363 Y74.741 E56.39685
G1 X145.721 Y74.966 E56.41948
G1 X145.056 Y75.115 E56.44215
G1 X144.357 Y75.185 E56.46551
G1 X144.107 Y75.195 E56.47383
G1 X143.875 Y75.2 E56.48155
G1 X123.675 Y75.201 E57.15341
G1 X123.675 Y135.55 E59.16062
G1 X123.635 Y136.23 E59.18328
G1 X123.516 Y136.9 E59.20591
G1 X123.319 Y137.552 E59.22856
G1 X123.047 Y138.176 E59.2512
G1 X122.703 Y138.764 E59.27386
G1 X122.293 Y139.308 E59.29652
G1 X121.822 Y139.799 E59.31915
G1 X121.297 Y140.233 E59.3418
G1 X120.725 Y140.602 E59.36444
G1 X120.113 Y140.901 E59.3871
G1 X119.471 Y141.126 E59.40973
G1 X118.806 Y141.275 E59.43239
G1 X117.875 Y141.35 E59.46346
G1 X75.875 Y141.35 E60.86038
G1 X75.195 Y141.31 E60.88304
G1 X74.525 Y141.191 E60.90567
G1 X73.873 Y140.994 E60.92833
G1 X73.249 Y140.722 E60.95097
G1 X72.661 Y140.378 E60.97362
G1 X72.117 Y139.968 E60.99628
G1 X71.626 Y139.497 E61.01891
G1 X71.192 Y138.972 E61.04157
G1 X70.823 Y138.4 E61.06421
G1 X70.524 Y137.788 E61.08686
G1 X70.299 Y137.146 E61.10949
G1 X70.15 Y136.481 E61.13215
G1 X70.075 Y135.55 E61.16322
G1 X70.075 Y64.15 E63.53799
G1 X70.115 Y63.47 E63.56065
G1 X70.234 Y62.8 E63.58328
G1 X70.431 Y62.148 E63.60594
G1 X70.703 Y61.524 E63.62858
G1 X71.047 Y60.936 E63.65123
G1 X71.457 Y60.392 E63.67389
G0 F6000 X71.853 Y60.547
G1 F1200 X72.32 Y60.085 E63.69574
G1 X72.84 Y59.684 E63.71758
G1 X73.404 Y59.348 E63.73942
G1 X74.006 Y59.084 E63.76128
G1 X74.635 Y58.894 E63.78313
G1 X75.282 Y58.783 E63.80497
G1 X75.875 Y58.75 E63.82472
G1 X144.125 Y58.75 E66.09472
G1 X144.781 Y58.79 E66.11658
G1 X145.427 Y58.909 E66.13843
G1 X146.054 Y59.106 E66.16029
G1 X146.652 Y59.378 E66.18214
G1 X147.213 Y59.72 E66.20399
G1 X147.728 Y60.128 E66.22585
G1 X148.19 Y60.595 E66.2477
G1 X148.591 Y61.115 E66.26954
G1 X148.927 Y61.679 E66.29137
G1 X149.191 Y62.281 E66.31324
G1 X149.381 Y62.91 E66.33509
G1 X149.492 Y63.557 E66.35692
G1 X149.525 Y64.15 E66.37668
G1 X149.525 Y69.39 E66.55096
G1 X149.485 Y70.046 E66.57282
